!!!!SEGMENT: pl-wtm--r-1523_stefani-jozef--wspomnienie-ojcowa.krn
!!!cenid: 18xx:2240
!!!COM: Stefani, Józef
!!!COM-rismid: pe30024097
!!!CDT: 1800/04/16-1876/03/19
!!!CNT: Polish
!!!PDT:
!!!AGN:
!!!OTL: Wspomnienie Ojcowa
!!!SMS-siglum: PL-Wtm
!!!SMS-shelfmark: R 1523
!!!SMS-shelfwork: W
!!!SMS-variant:
!!!SMS-altvar:
!!!NIFC-rismid: 1001120442
!!!URL-scan: http://repozytorium.nifc.pl/skany/pl-wtm-nut--r1523
!!!ONB-nifc:
!!!key:
**kern	**dynam	**kern	**dynam	**kern	**text	**kern	**dynam	**kern	**dynam	**kern	**dynam	**kern	**dynam	**kern	**dynam	**kern	**dynam	**kern	**dynam	**kern	**dynam	**kern	**dynam
*part12	*part12	*part11	*part11	*part10	*part10	*part9	*part9	*part8	*part8	*part7	*part7	*part6	*part6	*part5	*part5	*part4	*part4	*part3	*part3	*part2	*part2	*part1	*part1
*staff12	*	*staff11	*	*staff10	*staff10	*staff9	*	*staff8	*	*staff7	*	*staff6	*	*staff5	*	*staff4	*	*staff3	*	*staff2	*	*staff1	*
*Icbass	*	*Icello	*	*Ivox	*	*Iviola	*	*Iempty	*	*Ivioln	*	*Itromp	*	*Ifagot	*	*Icor	*	*Iclars	*	*Ioboe	*	*Iflt	*
*I"C:Baſsi	*	*I"Violoncelli	*	*I"Voce	*	*I"Viole	*	*	*	*I"Violini	*	*I"in C Trombe	*	*I"Fagotti	*	*I"in Es Corni	*	*I"in B. Clarinetti	*	*I"Oboe	*	*I"Flauto	*
*clefF4	*	*clefF4	*	*clefG2	*	*clefC3	*	*clefG2	*	*clefG2	*	*clefG2	*	*clefF4	*	*clefG2	*	*clefG2	*	*clefG2	*	*clefG2	*
*ITrd0c0	*	*	*	*	*	*	*	*	*	*	*	*	*	*	*	*ITrd5c9	*	*ITrd1c2	*	*	*	*	*
*k[b-e-a-d-g-]	*	*k[b-e-a-d-g-]	*	*k[b-e-a-d-g-]	*	*k[b-e-a-d-g-]	*	*k[b-e-a-d-g-]	*	*k[b-e-a-d-g-]	*	*k[b-e-a-d-g-]	*	*k[b-e-a-d-g-]	*	*k[b-e-a-]	*	*k[b-e-a-d-g-]	*	*k[b-e-a-d-g-]	*	*k[b-e-a-d-g-]	*
*D-:	*	*D-:	*	*D-:	*	*D-:	*	*D-:	*	*D-:	*	*D-:	*	*D-:	*	*D-:	*	*D-:	*	*D-:	*	*D-:	*
*M3/4	*	*M3/4	*	*M3/4	*	*M3/4	*	*M3/4	*	*M3/4	*	*M3/4	*	*M3/4	*	*M3/4	*	*M3/4	*	*M3/4	*	*M3/4	*
=1	=1	=1	=1	=1	=1	=1	=1	=1	=1	=1	=1	=1	=1	=1	=1	=1	=1	=1	=1	=1	=1	=1	=1
*2\right	*	*2\right	*	*2\right	*	*2\right	*	*2\right	*	*2\right	*	*2\right	*	*2\right	*	*2\right	*	*2\right	*	*2\right	*	*2\right	*
!	!	!	!	!	!	!	!	!	!	!	!	!	!	!	!	!	!	!	!	!	!	!LO:TX:t=P:problem=all\middle or right&colon; global	!
!	!LO:DY:b:rj	!	!LO:DY:b:rj	!	!	!	!	!	!	!	!	!LO:TX:t=P:problem=klucz basowy poprawiony na wiolinowy, poprawione znaki	!	!	!	!	!	!	!	!	!	!LO:TX:i:a:t=Allegretto.	!
4D-\	f	4AA- 4DD-/	f	2.r	.	2.r	.	2.r	.	2.r	.	2.r	.	4AA- 4DD-/	.	2.r	.	2.r	.	2.r	.	2.r	.
*	*	*	*	*	*	*	*	*	*	*	*	*	*	*rep	*	*	*	*	*	*	*	*	*
4D-\	.	4AA- 4DD-/	.	.	.	.	.	.	.	.	.	.	.	4AA- 4DD-/	.	.	.	.	.	.	.	.	.
*	*	*	*	*	*	*	*	*	*	*	*	*	*	*Xrep	*	*	*	*	*	*	*	*	*
*	*	*	*	*	*	*	*	*	*	*	*	*	*	*rep	*	*	*	*	*	*	*	*	*
4D-\	.	4AA- 4DD-/	.	.	.	.	.	.	.	.	.	.	.	4AA- 4DD-/	.	.	.	.	.	.	.	.	.
*	*	*	*	*	*	*	*	*	*	*	*	*	*	*Xrep	*	*	*	*	*	*	*	*	*
=2	=2	=2	=2	=2	=2	=2	=2	=2	=2	=2	=2	=2	=2	=2	=2	=2	=2	=2	=2	=2	=2	=2	=2
4D-\	.	4AA- 4DD-/	.	2.r	.	2.r	.	2.r	.	2.r	.	2.r	.	4AA- 4DD-/	.	2.r	.	2.r	.	2.r	.	2.r	.
*	*	*	*	*	*	*	*	*	*	*	*	*	*	*rep	*	*	*	*	*	*	*	*	*
4D-\	.	4AA- 4DD-/	.	.	.	.	.	.	.	.	.	.	.	4AA- 4DD-/	.	.	.	.	.	.	.	.	.
*	*	*	*	*	*	*	*	*	*	*	*	*	*	*Xrep	*	*	*	*	*	*	*	*	*
*	*	*	*	*	*	*	*	*	*	*	*	*	*	*rep	*	*	*	*	*	*	*	*	*
4D-\	.	4AA- 4DD-/	.	.	.	.	.	.	.	.	.	.	.	4AA- 4DD-/	.	.	.	.	.	.	.	.	.
*	*	*	*	*	*	*	*	*	*	*	*	*clefG2	*	*Xrep	*	*	*	*	*	*	*	*	*
=3	=3	=3	=3	=3	=3	=3	=3	=3	=3	=3	=3	=3	=3	=3	=3	=3	=3	=3	=3	=3	=3	=3	=3
*	*	*	*	*	*	*	*	*	*	*	*	*^	*	*	*	*	*	*	*	*	*	*	*
*	*	*	*	*	*	*	*	*	*	*	*	*2\right	*	*	*	*	*	*	*	*	*	*	*	*
!	!	!	!	!	!	!	!	!	!LO:DY:b:rj	!	!LO:DY:b:rj	!	!	!	!	!	!	!LO:DY:b:rj	!LO:TX:i:b:t=due	!	!LO:TX:t=P::problem=t. 3-5 oznaczone odnośnikiem&colon; col Fl.	!	!	!
!	!	!	!	!	!	!	!	!	!	!	!	!	!	!	!	!	!	!	!	!	!LO:TX:a:i:t=col Fl.	!	!	!
4D-\	.	4AA- 4DD-/	.	2.r	.	8.dd-|>L 8.f 8.A-\	.	4f 4A-/	f	8.ddd-|>L 8.ff 8.a-\	f	2.a-/	2.f\	.	2.D- 2.DD-/	.	2.f 2.A-/	f	8.dd-|>/L	.	8.ddd-'>\Lyy	.	8.ddd-'>\L	.
.	.	.	.	.	.	16f|>\Jk	.	.	.	16ff|>\Jk	.	.	.	.	.	.	.	.	16f|>/Jk	.	16ff'>\Jkyy	.	16ff'>\Jk	.
*rep	*	*rep	*	*	*	*	*	*rep	*	*	*	*	*	*	*	*	*	*	*	*	*	*	*	*
4D-\	.	4AA- 4DD-/	.	.	.	8.a-|>\L	.	4f 4A-/	.	8.aa-|>\L	.	.	.	.	.	.	.	.	8.a-|>/L	.	8.aa-'>\Lyy	.	8.aa-'>\L	.
!	!	!	!	!	!	!LO:TX:t=P:problem=poprawiony łuk	!	!	!	!	!	!	!	!	!	!	!	!	!	!	!	!	!	!
.	.	.	.	.	.	(>32b-\LL	.	.	.	(>32bb-\LL	.	.	.	.	.	.	.	.	(>32b-/LL	.	(>32bb-\LLyy	.	(>32bb-\LL	.
.	.	.	.	.	.	32a-\JJJ	.	.	.	32aa-\JJJ	.	.	.	.	.	.	.	.	32a-/JJJ	.	32aa-\JJJyy	.	32aa-\JJJ	.
*Xrep	*	*Xrep	*	*	*	*	*	*Xrep	*	*	*	*	*	*	*	*	*	*	*	*	*	*	*	*
*rep	*	*rep	*	*	*	*	*	*rep	*	*	*	*	*	*	*	*	*	*	*	*	*	*	*	*
4D-\	.	4AA- 4DD-/	.	.	.	8.g-\L)	.	4f 4A-/	.	8.gg-\L)	.	.	.	.	.	.	.	.	8.g-/L)	.	8.gg-\Lyy	.	8.gg-\L	.
.	.	.	.	.	.	16f|>\Jk	.	.	.	16ff|>\Jk	.	.	.	.	.	.	.	.	16f|>/Jk	.	16ff|>\Jk)yy	.	16ff|>\Jk)	.
*Xrep	*	*Xrep	*	*	*	*	*	*Xrep	*	*	*	*	*	*	*	*	*	*	*	*	*	*	*	*
=4	=4	=4	=4	=4	=4	=4	=4	=4	=4	=4	=4	=4	=4	=4	=4	=4	=4	=4	=4	=4	=4	=4	=4	=4
*	*	*	*	*	*	*	*	*	*	*	*	*	*	*	*	*	*^	*	*	*	*	*	*	*
4D-\	.	4DD-/	.	2.r	.	8.g-|>\L	.	4g- 4B-/	.	8.gg-|>\L	.	4b-/	4g-\	.	4D- 4DD-/	.	4g-X/	4B-\	.	8.g-'>/L	.	8.gg-\Lyy	.	8.gg-\L	.
.	.	.	.	.	.	16b-|>\Jk	.	.	.	16bb-|>\Jk	.	.	.	.	.	.	.	.	.	16b-'>/Jk	.	16bb-\Jkyy	.	16bb-\Jk	.
*rep	*	*	*	*	*	*	*	*	*	*	*	*	*	*	*	*	*	*	*	*	*	*	*	*	*
!	!	!LO:TX:t=P:problem=4BB- poprawione na 4D-	!	!	!	!	!	!	!	!	!	!	!	!	!	!	!	!	!	!	!	!	!	!	!
4D-\	.	4D-/	.	.	.	(>4gn^<\	.	(<4en^>/	.	(>4ggn^<\	.	4b-/	4en\	.	2D- 2DD-/	.	(>4eX/	4B-^<\	.	(>4g^>/	.	(>4ggn\yy	.	(>4ggn\	.
*Xrep	*	*	*	*	*	*	*	*	*	*	*	*	*	*	*	*	*	*	*	*	*	*	*	*	*
*rep	*	*	*	*	*	*	*	*	*	*	*	*	*	*	*	*	*	*	*	*	*	*	*	*	*
!	!	!LO:TX:t=P:problem=4BB- poprawione na 4D-	!	!	!	!	!	!	!	!	!	!	!	!	!	!	!	!	!	!	!	!	!	!	!
4D-\	.	4D-/	.	.	.	4a-\)	.	4f/)	.	4aa-\)	.	4a-/	4f\	.	.	.	4f/)	4A-\	.	4a-/)	.	4aa-\)yy	.	4aa-\)	.
*Xrep	*	*	*	*	*	*	*	*	*	*	*	*	*	*	*	*	*	*	*	*	*	*	*	*	*
*	*	*	*	*	*	*	*	*	*	*	*	*	*	*	*	*	*v	*v	*	*	*	*	*	*	*
=5	=5	=5	=5	=5	=5	=5	=5	=5	=5	=5	=5	=5	=5	=5	=5	=5	=5	=5	=5	=5	=5	=5	=5	=5
4D-\	.	4AA- 4DD-/	.	2.r	.	8.dd-|>L 8.f 8.A-\	.	4f 4A-/	.	8.ddd-|>L 8.ff 8.a-\	.	2.a-/	2.f\	.	2.D- 2.DD-/	.	2.f 2.A-/	.	8.dd-|>/L	.	8.ddd-|>\Lyy	.	8.ddd-|>\L	.
.	.	.	.	.	.	16f|>\Jk	.	.	.	16ff|>\Jk	.	.	.	.	.	.	.	.	16f|>/Jk	.	16ff|>\Jkyy	.	16ff|>\Jk	.
*rep	*	*rep	*	*	*	*	*	*rep	*	*	*	*	*	*	*	*	*	*	*	*	*	*	*	*
4D-\	.	4AA- 4DD-/	.	.	.	8.a-|>\L	.	4f 4A-/	.	8.aa-|>\L	.	.	.	.	.	.	.	.	8.a-|>/L	.	8.aa-|>\Lyy	.	8.aa-|>\L	.
.	.	.	.	.	.	(>32b-\LL	.	.	.	(>32bb-\LL	.	.	.	.	.	.	.	.	(>32b-/LL	.	(>32bb-\LLyy	.	(>32bb-\LL	.
.	.	.	.	.	.	32a-\JJJ	.	.	.	32aa-\JJJ	.	.	.	.	.	.	.	.	32a-/JJJ	.	32aa-\JJJyy	.	32aa-\JJJ	.
*Xrep	*	*Xrep	*	*	*	*	*	*Xrep	*	*	*	*	*	*	*	*	*	*	*	*	*	*	*	*
*rep	*	*rep	*	*	*	*	*	*rep	*	*	*	*	*	*	*	*	*	*	*	*	*	*	*	*
4D-\	.	4AA- 4DD-/	.	.	.	8.g-\L)	.	4f 4A-/	.	8.gg-\L)	.	.	.	.	.	.	.	.	8.g-/L)	.	8.gg-\Lyy	.	8.gg-\L	.
!	!	!	!	!	!	!LO:TX:t=P:problem=16e- poprawione na 16f	!	!	!	!	!	!	!	!	!	!	!	!	!	!	!	!	!	!
.	.	.	.	.	.	16f|>\Jk	.	.	.	16ff|>\Jk	.	.	.	.	.	.	.	.	16f|>/Jk	.	16ff|>\Jk)yy	.	16ff|>\Jk)	.
*Xrep	*	*Xrep	*	*	*	*	*	*Xrep	*	*	*	*	*	*	*	*	*	*	*	*	*	*	*	*
*	*	*	*	*	*	*	*	*	*	*	*	*v	*v	*	*	*	*	*	*	*	*	*	*	*
!!LO:PB:g=original
=6	=6	=6	=6	=6	=6	=6	=6	=6	=6	=6	=6	=6	=6	=6	=6	=6	=6	=6	=6	=6	=6	=6	=6
*	*	*	*	*	*	*	*	*	*	*	*	*	*	*	*	*^	*	*	*	*	*	*	*
!	!	!	!	!	!	!	!	!	!	!	!	!	!	!	!	!	!	!	!LO:TX:t=P:problem=8.g poprawione na 8.f	!	!	!	!	!
!LO:TX:t=P:problem=4D- poprawione na 4AA-	!	!LO:TX:t=P:problem=4DD- poprawione na 4AA-	!	!	!	!	!	!	!	!	!	!	!	!LO:TX:t=P:problem=4DD- D- poprawione na 4AA- A-	!	!	!	!	!	!	!	!	!	!
4AA-/	.	4AA-/	.	2.r	.	8.e-\L	.	4g- 4A-/	.	8.ee-|>\L	.	4g- 4c/	.	4A- 4AA-\	.	4e-/	4A-\	.	8.e-|</L	.	8.ee-|>\L	.	8.ee-|>\L	.
!	!	!	!	!	!	!	!	!	!	!	!	!	!	!	!	!	!	!	!LO:TX:t=P:problem=16b- poprawione na 16a-	!	!	!	!	!
.	.	.	.	.	.	16g-\Jk	.	.	.	16gg-|>\Jk	.	.	.	.	.	.	.	.	16g-|</Jk	.	16gg-|>\Jk	.	16ggg-|>\Jk	.
!LO:TX:t=P:problem=4C poprawione na 4D-	!	!LO:TX:t=P:problem=4AA- poprawione na 4D-	!	!	!	!	!	!	!	!	!	!	!	!	!	!	!	!	!	!	!	!	!	!
*	*	*	*	*	*	*	*	*	*	*	*	*	*	*	*	*2\right	*	*	*	*	*	*	*	*
4D-/	.	4D-/	.	.	.	(>4f\	.	4f 4A-/	.	(>4ff\	.	2f 2d-/	.	2D- 2DD-/	.	2f/	2A-\	.	(<4f/	.	(>4ff\	.	(>4fff\	.
!LO:TX:t=P:problem=4C poprawione na 4D-	!	!LO:TX:t=P:problem=4AA- poprawione na 4D-	!	!	!	!	!	!	!	!	!	!	!	!	!	!	!	!	!	!	!	!	!	!
4D-/	.	4D-/	.	.	.	4d-\)	.	4f 4A-/	.	4dd-\)	.	.	.	.	.	.	.	.	4d-/)	.	4dd-\)	.	4ddd-\)	.
*	*	*	*	*	*	*	*	*	*	*	*	*	*	*	*	*v	*v	*	*	*	*	*	*	*
=7	=7	=7	=7	=7	=7	=7	=7	=7	=7	=7	=7	=7	=7	=7	=7	=7	=7	=7	=7	=7	=7	=7	=7
*	*	*	*	*	*	*	*	*	*	*	*	*	*	*^	*	*	*	*^	*	*	*	*	*
!	!	!	!LO:DY:b	!	!	!	!LO:DY:b	!	!	!	!LO:DY:b	!	!	!	!	!LO:DY:a	!	!	!	!	!	!	!	!	!
4G-\	.	4GG-/	p	2.r	.	4r	p	4r	.	4r	p	2.r	.	8.B-'>/L	4r	p	4r	.	8.b-|>/L	4r	.	2.r	.	8.bb-|>\L	.
.	.	.	.	.	.	.	.	.	.	.	.	.	.	16dn'>/Jk	.	.	.	.	16dd|>/Jk	.	.	.	.	16dddn|>\Jk	.
*	*	*	*	*	*	*	*	*	*	*	*	*	*	*2\right	*	*	*	*	*2\right	*	*	*	*	*	*
4r	.	4r	.	.	.	(>4e-\	.	2B-/	.	(>4g-/	.	.	.	(>4e-/	2G-\	.	2g-X 2B-/	.	(>4ee-/	2e-\	.	.	.	(>4eee-\	.
4r	.	4r	.	.	.	4g-\)	.	.	.	4e-/)	.	.	.	4g-/)	.	.	.	.	4gg-/)	.	.	.	.	4ggg-\)	.
=8	=8	=8	=8	=8	=8	=8	=8	=8	=8	=8	=8	=8	=8	=8	=8	=8	=8	=8	=8	=8	=8	=8	=8	=8	=8
4A-\	.	4AA-/	.	2.r	.	4r	.	4r	.	4r	.	2.r	.	8.A-'>/L	4r	.	4r	.	8.a-|>/L	4r	.	2.r	.	8.aa-|>\L	.
.	.	.	.	.	.	.	.	.	.	.	.	.	.	16c'>/Jk	.	.	.	.	16cc|>/Jk	.	.	.	.	16ccc|>\Jk	.
4r	.	4r	.	.	.	(>4d-\	.	2A-/	.	(>4f/	.	.	.	(>4d-/	2A-\	.	2f 2A-/	.	(>4dd-/	2d-\	.	.	.	(>4ddd-\	.
4r	.	4r	.	.	.	4f\)	.	.	.	4d-/)	.	.	.	4f/)	.	.	.	.	4ff/)	.	.	.	.	4fff\)	.
*	*	*	*	*	*	*	*	*	*	*	*	*	*	*	*	*	*	*	*	*	*	*	*	*	*
=9	=9	=9	=9	=9	=9	=9	=9	=9	=9	=9	=9	=9	=9	=9	=9	=9	=9	=9	=9	=9	=9	=9	=9	=9	=9
!	!	!	!	!	!	!	!LO:DY:b:rj	!	!LO:DY:b:rj	!	!LO:DY:b:rj	!LO:TX:t=P:problem=t. 9-10 zapisane w partii cor	!	!	!	!	!LO:TX:t=P:problem=t. 9-10 zapisane w partii tr	!	!	!	!	!	!	!	!
!	!LO:DY:b:rj	!LO:TX:t=P:problem=t. 9-58  zapisane odnośnikami do cb (opórcz t. 30)	!LO:DY:b:rj	!	!	!	!	!	!	!	!	!LO:TX:i:a:t=Trombe	!	!	!	!	!LO:TX:i:a:t=Corni	!	!LO:TX:t=P:problem=poprawione dźwięki	!	!	!	!	!	!
4AA-/	f	4AA-/yy	f	2.r	.	4e- 4c\	f	4g- 4A-/	f	(>8aa-\L	f	(<8a-/L	.	2.e-\	2.AA-\	.	2.g-X 2.A-/	.	2.cc/	2.g-\	.	(>8aa-\L	.	2.r	.
.	.	.	.	.	.	.	.	.	.	8ggn\)	.	8gn/)	.	.	.	.	.	.	.	.	.	8ggn\)	.	.	.
*	*	*	*	*	*	*rep	*	*rep	*	*	*	*	*	*	*	*	*	*	*	*	*	*	*	*	*
4A-\	.	4A-\yy	.	.	.	4e- 4c\	.	4g- 4A-/	.	(>8bb-\	.	(<8b-/	.	.	.	.	.	.	.	.	.	(>8bb-\	.	.	.
.	.	.	.	.	.	.	.	.	.	8aa-\	.	8a-/	.	.	.	.	.	.	.	.	.	8aa-\	.	.	.
*	*	*	*	*	*	*Xrep	*	*Xrep	*	*	*	*	*	*	*	*	*	*	*	*	*	*	*	*	*
*	*	*	*	*	*	*rep	*	*rep	*	*	*	*	*	*	*	*	*	*	*	*	*	*	*	*	*
4AA-/	.	4AA-/yy	.	.	.	4e- 4c\	.	4g- 4A-/	.	8gg-X\	.	8g-X/	.	.	.	.	.	.	.	.	.	8gg-X\	.	.	.
.	.	.	.	.	.	.	.	.	.	8ee-\J)	.	8e-/J)	.	.	.	.	.	.	.	.	.	8ee-\J)	.	.	.
*	*	*	*	*	*	*Xrep	*	*Xrep	*	*	*	*	*	*	*	*	*	*	*	*	*	*	*	*	*
*	*	*	*	*	*	*	*	*	*	*	*	*	*	*v	*v	*	*	*	*	*	*	*	*	*	*
*	*	*	*	*	*	*	*	*	*	*	*	*	*	*	*	*	*	*v	*v	*	*	*	*	*
=10	=10	=10	=10	=10	=10	=10	=10	=10	=10	=10	=10	=10	=10	=10	=10	=10	=10	=10	=10	=10	=10	=10	=10
4D-/	.	4D-/yy	.	2.r;>	.	4d-\	.	4f 4A-/	.	4dd-\	.	4d-/	.	4d- 4D-\	.	4f 4A-/	.	4dd- 4f/	.	4dd-\	.	4r	.
!	!LO:DY:b:rj	!	!LO:DY:b:rj	!	!	!	!	!	!	!	!LO:DY:b:rj	!	!LO:DY:b:rj	!	!LO:DY:b:rj	!LO:TX:t=P:problem=poprawione dźwięki	!	!	!	!	!LO:DY:b:rj	!	!LO:DY:b:rj
4AA-/	ff	4AA-/yy	ff	.	.	4e- 4A-/	.	4cc 4e- 4A-/	.	4aa- 4cc 4e-\	ff	4a- 4c/	ff	4A- 4AA-/	ff	4e- 4A-/	.	4cc 4e-/	.	4aa- 4cc\	ff	4aaa-\	ff
4r;>	.	4r;>yy	.	.	.	4r;>	.	4r;>	.	4r;>	.	4r;>	.	4r;>	.	4r;>	.	4r;>	.	4r;>	.	4r;>	.
!!LO:PB:g=original
=11||	=11||	=11||	=11||	=11||	=11||	=11||	=11||	=11||	=11||	=11||	=11||	=11||	=11||	=11||	=11||	=11||	=11||	=11||	=11||	=11||	=11||	=11||	=11||
*clefF4	*	*clefF4	*	*clefG2	*	*clefC3	*	*clefG2	*	*clefG2	*	*clefG2	*	*clefF4	*	*clefG2	*	*clefG2	*	*clefG2	*	*clefG2	*
*k[b-e-a-d-g-]	*	*k[b-e-a-d-g-]	*	*k[b-e-a-d-g-]	*	*k[b-e-a-d-g-]	*	*k[b-e-a-d-g-]	*	*k[b-e-a-d-g-]	*	*k[b-e-a-d-g-]	*	*k[b-e-a-d-g-]	*	*k[b-e-a-]	*	*k[b-e-a-d-g-]	*	*k[b-e-a-d-g-]	*	*k[b-e-a-d-g-]	*
*M3/4	*	*M3/4	*	*M3/4	*	*M3/4	*	*M3/4	*	*M3/4	*	*M3/4	*	*M3/4	*	*M3/4	*	*M3/4	*	*M3/4	*	*M3/4	*
!	!	!	!	!	!	!	!	!	!	!	!	!	!	!	!	!	!	!	!	!	!	!LO:TX:t=P:problem=nazwy instrumentów na początku pięciolinii	!
!	!LO:DY:b:rj	!	!LO:DY:b:rj	!	!	!	!	!	!	!	!	!	!	!	!	!	!	!	!	!	!LO:DY:a:rj	!LO:TX:a:i:t=Allegretto.	!
!LO:TX:a:i:t=C&colon;Baſsi	!	!LO:TX:a:i:t=Violoncelli	!	!LO:TX:a:i:t=Voce	!	!LO:TX:a:i:t=Viole	!	!	!	!LO:TX:b:i:t=Violini	!	!LO:TX:a:i:t=in C.\nTrombe	!	!LO:TX:a:i:t=Fagotti	!	!LO:TX:a:i:t=in Es\nCorni	!	!LO:TX:a:i:t=in B.\nClarinetti	!	!LO:TX:a:i:t=Oboe	!	!LO:TX:a:i:t=Flauto	!
!	!	!	!	!	!	!	!LO:DY:b:rj	!	!LO:DY:b	!	!LO:DY:b	!	!	!	!LO:DY:b:rj	!	!LO:DY:b:rj	!	!	!	!	!LO:TX:t=P:problem=klucze przed znakami przykluczowymi	!
4D-/	f	4D-/yy	f	2.r	.	4d-\	f	8.r	p	8.r	p	4r	.	2d-\	p	2f 2A-/	p	4r	.	[<2.a-/	p	2.r	.
.	.	.	.	.	.	.	.	(<16A-|</	.	[<16A-/	.	.	.	.	.	.	.	.	.	.	.	.	.
4r	.	4ryy	.	.	.	4r	.	4d-/)	.	4f 4A-/]	.	4r	.	.	.	.	.	4r	.	.	.	.	.
!	!	!	!	!	!	!	!	!	!LO:DY:b:rj	!	!LO:DY:b:rj	!	!LO:DY:b:rj	!	!LO:DY:b:rj	!	!LO:DY:b:rj	!	!LO:DY:b:rj	!	!	!	!
4AA-/	.	4AA-/yy	.	.	.	4A-/	.	4c/	f	4a- 4A-/	f	4c/	f	4e- 4c\	f	4a- 4A-\	f	4a- 4e-/	f	.	.	.	.
=12	=12	=12	=12	=12	=12	=12	=12	=12	=12	=12	=12	=12	=12	=12	=12	=12	=12	=12	=12	=12	=12	=12	=12
*	*	*	*	*	*	*	*	*	*	*	*	*	*	*	*	*^	*	*	*	*	*	*	*
!	!	!	!	!	!	!	!	!	!LO:DY:b	!	!LO:DY:b	!	!	!	!LO:DY:b	!	!	!LO:DY:b:rj	!	!	!	!	!	!
4D-/	.	4D-/yy	.	2.r	.	4d-\	.	8.r	p	8.r	p	4r	.	2d-\	p	2f 2A-/	2ryy	p	4r	.	2a-/]	.	2.r	.
.	.	.	.	.	.	.	.	(<16A-|</	.	[<16A-/	.	.	.	.	.	.	.	.	.	.	.	.	.	.
4r	.	4ryy	.	.	.	4r	.	4d-/)	.	4f 4A-/]	.	4r	.	.	.	.	.	.	4r	.	.	.	.	.
!	!	!	!	!	!	!	!	!	!LO:DY:b:rj	!	!LO:DY:b:rj	!	!LO:DY:b:rj	!	!LO:DY:b:rj	!	!	!LO:DY:b:rj	!LO:TX:t=P:problem=4e- g poprawione na 4d- f	!	!	!LO:DY:a:rj	!	!
(<8BB--/L	.	(<8BB--/Lyy	.	.	.	(<8B--/L	.	4e- 4c/	f	4g-/	f	4c/	f	4e- 4c\	f	4g-X/	8G-X\L	f	4e- 4c/	.	(<8g-^>/L	sf	.	.
8AA-/J)	.	8AA-/J)yy	.	.	.	8A-/J)	.	.	.	.	.	.	.	.	.	.	8A-\J	.	.	.	8a-/J)	.	.	.
*	*	*	*	*	*	*	*	*	*	*	*	*	*	*	*	*v	*v	*	*	*	*	*	*	*
=13	=13	=13	=13	=13	=13	=13	=13	=13	=13	=13	=13	=13	=13	=13	=13	=13	=13	=13	=13	=13	=13	=13	=13
!	!	!	!	!	!	!	!	!	!LO:DY:b	!	!LO:DY:b	!	!	!	!LO:DY:b	!	!LO:DY:b	!	!	!	!LO:DY:a:rj	!	!
4D-\	.	4D-\yy	.	2.r	.	4d-\	.	8.r	p	8.r	p	4r	.	2d-\	p	2f 2A-/	p	4r	.	[<2.a-/	p	2.r	.
.	.	.	.	.	.	.	.	(<16A-/	.	[<16A-|</	.	.	.	.	.	.	.	.	.	.	.	.	.
4r	.	4ryy	.	.	.	4r	.	4d-/)	.	4f 4A-/]	.	4r	.	.	.	.	.	4r	.	.	.	.	.
!	!	!	!	!	!	!	!	!	!LO:DY:b:rj	!	!LO:DY:b:rj	!	!LO:DY:b:rj	!	!LO:DY:b:rj	!	!LO:DY:b:rj	!	!	!	!	!	!
4AA-/	.	4AA-/yy	.	.	.	4A-/	.	4c/	f	4a- 4A-/	f	4c/	f	4e- 4c\	f	4a- 4A-/	f	4a- 4e-/	.	.	.	.	.
=14	=14	=14	=14	=14	=14	=14	=14	=14	=14	=14	=14	=14	=14	=14	=14	=14	=14	=14	=14	=14	=14	=14	=14
*	*	*	*	*	*	*	*	*	*	*	*	*	*	*	*	*^	*	*	*	*	*	*	*
!	!	!	!	!	!	!	!	!	!LO:DY:b	!	!LO:DY:b	!	!	!	!LO:DY:b	!	!	!LO:DY:b	!	!	!	!	!	!
4D-\	.	4D-\yy	.	2.r	.	4d-\	.	8.r	p	8.r	p	4r	.	2d-\	p	2f 2A-/	2ryy	p	4r	.	2a-/]	.	2.r	.
.	.	.	.	.	.	.	.	16A-/	.	[<16A-|</	.	.	.	.	.	.	.	.	.	.	.	.	.	.
4r	.	4ryy	.	.	.	4r	.	4d-/	.	4f 4A-/]	.	4r	.	.	.	.	.	.	4r	.	.	.	.	.
!	!	!	!	!	!	!	!	!	!LO:DY:b:rj	!	!LO:DY:b:rj	!	!LO:DY:b:rj	!	!LO:DY:b:rj	!	!	!LO:DY:b:rj	!LO:TX:t=P:problem=4e- g poprawione na 4d- f	!	!	!LO:DY:a:rj	!	!
(<8BB--/L	.	(<8BB--/Lyy	.	.	.	(<8B--/L	.	4e- 4c/	f	4g-/	f	4c/	f	4e- 4c\	f	4g-X/	8G-X\L	f	4e- 4c/	.	(<8g-X^>/L	sf	.	.
8AA-/J)	.	8AA-/J)yy	.	.	.	8A-/J)	.	.	.	.	.	.	.	.	.	.	8A-\J	.	.	.	8a-/J)	.	.	.
*	*	*	*	*	*	*	*	*	*	*	*	*	*	*	*	*v	*v	*	*	*	*	*	*	*
!!LO:PB:g=original
=15	=15	=15	=15	=15	=15	=15	=15	=15	=15	=15	=15	=15	=15	=15	=15	=15	=15	=15	=15	=15	=15	=15	=15
*	*	*	*	*	*	*	*	*	*	*	*	*	*	*	*	*	*	*^	*	*	*	*	*
!	!	!	!	!	!	!	!	!	!	!	!	!	!	!	!	!	!	!LO:TX:t=P:problem=t. 15-19 wpisane w partii ob	!	!	!	!	!	!
!	!	!	!	!	!	!LO:TX:a:i:t=col b&colon;	!	!	!	!	!	!	!	!	!	!	!	!LO:TX:i:a:t=Clarinetto	!	!	!LO:TX:t=P:problem=t. 15-19 wpisane w partii cl	!	!	!
!	!LO:DY:b:rj	!	!LO:DY:b:rj	!	!	!LO:TX:t=P::problem=t.15-19 zapisane odnośnikiem&colon; col b	!LO:DY:b:rj	!	!	!	!LO:DY:b	!	!	!LO:DY:b:rj	!	!	!LO:DY:b:rj	!	!	!	!LO:TX:i:a:t=Oboe	!	!	!LO:DY:b:rj
4D-/	p	4D-/yy	p	8.f/	Niech	4d-/yy	p	8.r	.	8.r	p	2.r	.	[>2.d- [>2.D-\	pp	[>2.f [<2.A-/	pp	8.f|</L	2.re	.	2.r	.	8.ff|>\L	p
.	.	.	.	16g-/	Kto	.	.	(<16A-|</	.	[<16A-|</	.	.	.	.	.	.	.	16g-|</Jk	.	.	.	.	16gg-|>\Jk	.
4r	.	4ryy	.	4a-/	jak	4ryy	.	4d-/)	.	4f 4A-/]	.	.	.	.	.	.	.	4a-/	.	.	.	.	4aa-\	.
4D-/	.	4D-/yy	.	(>8cc\L	chce	4d-/yy	.	4d-/	.	4f 4A-/	.	.	.	.	.	.	.	8cc/L	.	.	.	.	(>8ccc\L	.
.	.	.	.	8dd-\J)	.	.	.	.	.	.	.	.	.	.	.	.	.	8dd-/J	.	.	.	.	8ddd-\J)	.
=16	=16	=16	=16	=16	=16	=16	=16	=16	=16	=16	=16	=16	=16	=16	=16	=16	=16	=16	=16	=16	=16	=16	=16	=16
*	*	*	*	*	*	*	*	*rep	*	*rep	*	*	*	*	*	*	*	*	*	*	*	*	*	*
!	!	!	!	!	!	!	!	!	!	!	!LO:DY:b	!	!	!	!	!	!	!	!	!	!	!	!	!
4D-/	.	4D-/yy	.	8.ff\	o	4d-/yy	.	8.r	.	8.r	p	2.r	.	2.d-] 2.D-\]	.	2.f] 2.A-/]	.	8.ff|</L	2.re	.	2.r	.	8.fff|>\L	.
.	.	.	.	16ee-\	tem	.	.	(<16A-|</	.	[<16A-|</	.	.	.	.	.	.	.	16ee-|</Jk	.	.	.	.	16eee-|>\Jk	.
4r	.	4ryy	.	4dd-\	po-	4ryy	.	4d-/)	.	4f 4A-/]	.	.	.	.	.	.	.	4dd-/	.	.	.	.	4ddd-\	.
4D-/	.	4D-/yy	.	4cc\	-wie	4d-/yy	.	4d-/	.	4f 4A-/	.	.	.	.	.	.	.	4cc/	.	.	.	.	4ccc\	.
*	*	*	*	*	*	*	*	*Xrep	*	*Xrep	*	*	*	*	*	*	*	*	*	*	*	*	*	*
*	*	*	*	*	*	*	*	*	*	*	*	*	*	*	*	*	*	*v	*v	*	*	*	*	*
=17	=17	=17	=17	=17	=17	=17	=17	=17	=17	=17	=17	=17	=17	=17	=17	=17	=17	=17	=17	=17	=17	=17	=17
*	*	*	*	*	*	*	*	*	*	*	*	*	*	*	*	*	*	*	*	*^	*	*	*
!	!	!	!	!	!	!	!	!	!	!	!	!	!	!	!	!LO:TX:t=P:łuk:problem	!	!	!	!	!	!LO:DY:a:rj	!	!
4D-/	.	4D-/yy	.	8.b-\	Nie	4d-/yy	.	8.r	.	8.r	.	2.r	.	[>2.d- [>2.D-\	.	(>(<2.g-X 2.B-/	.	8.b-/L	.	8.gg-'>\L	2.re	p	8.bb-|>\L	.
.	.	.	.	16cc\	ma	.	.	(<16B-|</	.	[<16B-/	.	.	.	.	.	.	.	16cc/Jk	.	16aa-'>\Jk	.	.	16ccc|>\Jk	.
.	.	.	.	(<8qee-/	.	.	.	.	.	.	.	.	.	.	.	.	.	(<8qee-/	.	(<8qccc/	.	.	(<8qeee-/	.
4r	.	4ryy	.	4dd-\)	ży-	4ryy	.	4d-/)	.	4g- 4B-/]	.	.	.	.	.	.	.	4dd-/)	.	4bb-\)	.	.	4ddd-\)	.
4D-/	.	4D-/yy	.	4b-\	-cia	4d-/yy	.	4d-/	.	4g- 4B-/	.	.	.	.	.	.	.	4b-/	.	4gg-\	.	.	4bb-\	.
=18	=18	=18	=18	=18	=18	=18	=18	=18	=18	=18	=18	=18	=18	=18	=18	=18	=18	=18	=18	=18	=18	=18	=18	=18
4D-/	.	4D-/yy	.	8.a-\	jak	4d-/yy	.	8.r	.	8.r	.	2.r	.	2.d-] 2.D-\]	.	2.f) 2.A-/)	.	8.a-/L	.	8.ff'>\L	2.re	.	8.aa-|>\L	.
.	.	.	.	16cc\	w oj-	.	.	(<16A-|</	.	[<16A-|</	.	.	.	.	.	.	.	16cc/Jk	.	16gg-|>\Jk	.	.	16ccc|>\Jk	.
4r	.	4ryy	.	4dd-\	-co-	4ryy	.	4d-/)	.	4f 4A-/]	.	.	.	.	.	.	.	4dd-/	.	4ff\	.	.	4ddd-\	.
4D-/	.	4D-/yy	.	4a-/	-wie	4d-/yy	.	4d-/	.	4f 4A-/	.	.	.	.	.	.	.	4a-/	.	4ff\	.	.	4aa-\	.
=19	=19	=19	=19	=19	=19	=19	=19	=19	=19	=19	=19	=19	=19	=19	=19	=19	=19	=19	=19	=19	=19	=19	=19	=19
4AA-/	.	4AA-/yy	.	8.g-/	Tu	4A-/yy	.	8.r	.	8.r	.	2.r	.	2.r	.	2.r	.	2.r	.	8.ee-'>\L	2.re	.	8.gg-\L	.
.	.	.	.	16cc\	sło-	.	.	(<16A-|</	.	[<16A-/	.	.	.	.	.	.	.	.	.	16ee-'>\Jk	.	.	16ccc\Jk	.
4r	.	4ryy	.	4ee-\	-dziu-	4ryy	.	4c/)	.	4g- 4A-|</]	.	.	.	.	.	.	.	.	.	4gg-\	.	.	4eee-\	.
4AA-/	.	4AA-/yy	.	4g-/	-tki	4A-/yy	.	4c/	.	4g- 4A-/	.	.	.	.	.	.	.	.	.	4ee-\	.	.	4gg-\	.
*	*	*	*	*	*	*	*	*	*	*	*	*	*	*	*	*	*	*	*	*v	*v	*	*	*
!!LO:PB:g=original
=20	=20	=20	=20	=20	=20	=20	=20	=20	=20	=20	=20	=20	=20	=20	=20	=20	=20	=20	=20	=20	=20	=20	=20
!	!	!	!	!	!	!	!	!	!	!	!	!	!	!	!	!	!	!LO:TX:i:a:t=Clari	!	!LO:TX:i:a:t=Oboe	!	!	!
4D-\	.	4D-\yy	.	8.f/	mio-	4d-\	.	8.r	.	8.r	.	2.r	.	2.r	.	2.r	.	2.r	.	8.dd-\L	.	8.ff|>\L	.
.	.	.	.	16b-/	-dek	.	.	(<16A-|</	.	[<16A-|</	.	.	.	.	.	.	.	.	.	16gg-\Jk	.	16bb-|>\Jk	.
4r	.	4ryy	.	4a-/	z u-	4r	.	4d-/)	.	4f 4A-/]	.	.	.	.	.	.	.	.	.	(>4ff\	.	(>4aa-\	.
4D-\	.	4D-\yy	.	4f/	-lów,	4d-\	.	4d-/	.	4f 4A-/	.	.	.	.	.	.	.	.	.	4dd-\)	.	4ff\)	.
=21	=21	=21	=21	=21	=21	=21	=21	=21	=21	=21	=21	=21	=21	=21	=21	=21	=21	=21	=21	=21	=21	=21	=21
*	*	*	*	*	*	*	*	*	*	*	*	*	*	*^	*	*	*	*^	*	*	*	*	*
!	!	!	!	!	!	!	!	!	!	!	!	!	!	!	!	!LO:DY:b:rj	!	!LO:DY:b:rj	!	!	!	!	!	!	!
4BB-/	.	4BB-/yy	.	8.dd-\	Tu	4B-/	.	4d-/	.	4f 4B-/	.	8r	.	2d- 2F\	2ryy	p	2f 2B-/	p	8.dd-'>/L	2.re	.	2.r	.	8.ddd-|>\L	.
!	!	!	!	!	!	!	!	!	!	!	!	!	!LO:DY:b:rj	!	!	!	!	!	!	!	!	!	!	!	!
.	.	.	.	.	.	.	.	.	.	.	.	16f/LL	p	.	.	.	.	.	.	.	.	.	.	.	.
.	.	.	.	16cc\	szczyt	.	.	.	.	.	.	16f/JJ	.	.	.	.	.	.	16cc'>/Jk	.	.	.	.	16ccc|>\Jk	.
4BB-/	.	4BB-/yy	.	4b-\	ru-	4B-/	.	4d-/	.	4f 4B-/	.	4f/	.	.	.	.	.	.	(>4b-/	.	.	.	.	(>4bb-\	.
4F\	.	4F\yy	.	4an\	-in	4F/	.	4c/	.	4f 4An/	.	4r	.	4c/	4F\	.	4f 4AX/	.	4a/)	.	.	.	.	4aan\)	.
*	*	*	*	*	*	*	*	*	*	*	*	*	*	*v	*v	*	*	*	*	*	*	*	*	*	*
=22	=22	=22	=22	=22	=22	=22	=22	=22	=22	=22	=22	=22	=22	=22	=22	=22	=22	=22	=22	=22	=22	=22	=22	=22
4BB-/	.	4BB-/yy	.	8.b-\	wiel-	4B-/	.	4d-/	.	4f 4B-/	.	8r	.	4d- 4F\	.	4f 4B-/	.	8.b-'>/L	2.re	.	2.r	.	8.bb-|>\L	.
.	.	.	.	.	.	.	.	.	.	.	.	16f/LL	.	.	.	.	.	.	.	.	.	.	.	.
.	.	.	.	16cc\	-kich	.	.	.	.	.	.	16f/JJ	.	.	.	.	.	16cc'>/Jk	.	.	.	.	16ccc|>\Jk	.
*2\right	*	*2\right	*	*	*	*	*	*	*	*	*	*	*	*	*	*	*	*	*	*	*	*	*	*
2F^>\	.	2F^>\yy	.	(>8.an\L	Kró-	2F/	.	2c/	.	2f 2An^>/	.	4f/	.	2c 2F\	.	2f 2AX/	.	(>8.a/L	.	.	.	.	(>8.aan\L	.
.	.	.	.	16ff\Jk)	.	.	.	.	.	.	.	.	.	.	.	.	.	16ff/Jk)	.	.	.	.	16fff\Jk)	.
.	.	.	.	4ff\	-lów	.	.	.	.	.	.	4r	.	.	.	.	.	4ff/	.	.	.	.	4fff\	.
=23	=23	=23	=23	=23	=23	=23	=23	=23	=23	=23	=23	=23	=23	=23	=23	=23	=23	=23	=23	=23	=23	=23	=23	=23
4F\	.	4F\yy	.	4r	.	4r	.	4r	.	8.ff|>\L	.	4r	.	4r	.	4r	.	8.ff/L	2.re	.	4r	.	8.fff|>\L	.
.	.	.	.	.	.	.	.	.	.	16cc|>\Jk	.	.	.	.	.	.	.	16cc/Jk	.	.	.	.	16ccc|>\Jk	.
*	*	*	*	*2\right	*	*	*	*	*	*	*	*	*	*	*	*	*	*	*	*	*	*	*	*
!	!	!	!	!	!	!	!	!LO:TX:t=P:problem=poprawione dźwięki	!	!	!	!	!	!	!	!	!	!	!	!	!	!	!	!
.	.	.	.	.	.	.	.	.	.	(<8qee-/	.	.	.	.	.	.	.	8qee-/	.	.	.	.	(<8qeee-/	.
4r	.	4ryy	.	2ff\	Ah!	4F/	.	4d- 4B-/	.	4dd-\)	.	4r	.	4d- 4F\	.	4f 4B-/	.	4dd-/	.	.	4r	.	4ddd-\)	.
!	!	!	!	!	!	!	!	!LO:TX:t=P:problem=poprawione dźwięki	!	!	!	!	!	!	!	!	!	!	!	!	!	!	!	!
4r	.	4ryy	.	.	.	4F/	.	4d- 4B-/	.	(>4b-\	.	(<4b-/	.	4d- 4F\	.	4f 4B-/	.	4r	.	.	(>4bb-\	.	4r	.
=24	=24	=24	=24	=24	=24	=24	=24	=24	=24	=24	=24	=24	=24	=24	=24	=24	=24	=24	=24	=24	=24	=24	=24	=24
*	*	*	*	*	*	*	*	*	*	*	*	*	*	*	*	*^	*	*	*	*	*	*	*	*
!	!	!	!	!	!	!	!	!LO:TX:t=P:problem=dźwięki poprawione na 4r	!	!	!	!	!	!	!	!	!	!	!	!	!	!	!	!	!
4F\	.	4F\yy	.	4r	.	4r	.	4r	.	8.an/L)	.	8.an/L)	.	4r	.	4r	4ryy	.	4r	2.re	.	8.aan\L)	.	4r	.
.	.	.	.	.	.	.	.	.	.	(<16g-|</Jk	.	(<16g-|</Jk	.	.	.	.	.	.	.	.	.	16gg-\Jk	.	.	.
4r	.	4ryy	.	2ff\	tak!	4F/	.	4e- 4c/	.	4f/)	.	4f/)	.	4c 4F\	.	4f/	4e-\	.	4r	.	.	4ff\	.	4r	.
4r	.	4ryy	.	.	.	4F/	.	4e- 4c/	.	4a/	.	4r	.	4c 4F\	.	4f/	4e-\	.	4a/	.	.	4r	.	4aan\	.
*	*	*	*	*	*	*	*	*	*	*	*	*	*	*	*	*v	*v	*	*	*	*	*	*	*	*
!!LO:PB:g=original
=25	=25	=25	=25	=25	=25	=25	=25	=25	=25	=25	=25	=25	=25	=25	=25	=25	=25	=25	=25	=25	=25	=25	=25	=25
*	*	*	*	*	*	*	*	*	*	*	*	*	*	*^	*	*	*	*	*	*	*	*	*	*
!	!	!	!	!	!	!	!	!	!	!LO:TX:i:a:t=rall&colon;	!	!	!	!	!	!	!	!	!	!	!	!	!	!	!
!	!	!	!	!LO:TX:i:a:t=rall&colon;	!	!	!	!	!	!	!	!	!	!	!	!LO:DY:b:rj	!	!	!	!	!LO:DY:b	!	!	!	!
4G-\	.	4G-\yy	.	8.b-\	Tu	4r	.	4r	.	8.b-|>\L	.	2.r	.	2.B-/	2.G-\	p	2.r	.	8.b-|>/L	2.eX\	p	2.r	.	8.bb-|>\L	.
.	.	.	.	16cc\	szczyt	.	.	.	.	16cc|>\Jk	.	.	.	.	.	.	.	.	16cc|>/Jk	.	.	.	.	16ccc|>\Jk	.
4r	.	4ryy	.	(>8.dd-\L	ru-	4G-X/	.	4en 4B-/	.	(>8.dd-\L	.	.	.	.	.	.	.	.	(>8.dd-/L	.	.	.	.	(>8.ddd-\L	.
.	.	.	.	32ee-\LL	.	.	.	.	.	32ee-\LL	.	.	.	.	.	.	.	.	32ee-/LL	.	.	.	.	32eee-\LL	.
.	.	.	.	32dd-\JJJ)	.	.	.	.	.	32dd-\JJJ)	.	.	.	.	.	.	.	.	32dd-/JJJ)	.	.	.	.	32ddd-\JJJ)	.
4r	.	4ryy	.	(>8cc\L	-in	4G-/	.	4e 4B-/	.	(>8cc\L	.	.	.	.	.	.	.	.	(>8.cc/L	.	.	.	.	(>8ccc\L	.
.	.	.	.	8b-\J)	.	.	.	.	.	8b-\J)	.	.	.	.	.	.	.	.	.	.	.	.	.	8bb-\J)	.
.	.	.	.	.	.	.	.	.	.	.	.	.	.	.	.	.	.	.	16b-/J)	.	.	.	.	.	.
=26	=26	=26	=26	=26	=26	=26	=26	=26	=26	=26	=26	=26	=26	=26	=26	=26	=26	=26	=26	=26	=26	=26	=26	=26	=26
4F\	.	4F\yy	.	8.an\	Wiel-	4F/	.	4f 4An/	.	8.an\L	.	2.r	.	4An/	4F\	.	2.r	.	8.a/L	8.f\L	.	2.r	.	8.aan\L	.
.	.	.	.	16cc\	-kich	.	.	.	.	16cc\Jk	.	.	.	.	.	.	.	.	16cc/Jk	16a\Jk	.	.	.	16ccc\Jk	.
*	*	*	*	*	*	*	*	*	*	*2\right	*	*	*	*	*	*	*	*	*	*	*	*	*	*2\right	*
2F\	.	2F\yy	.	4ff\	Kró-	2F/	.	2f 2A/	.	2ff\	.	.	.	2A/	2F\	.	.	.	2ff/	2a\	.	.	.	2fff\	.
.	.	.	.	4ff\	-lów!	.	.	.	.	.	.	.	.	.	.	.	.	.	.	.	.	.	.	.	.
*	*	*	*	*	*	*	*	*	*	*	*	*	*	*v	*v	*	*	*	*v	*v	*	*	*	*	*
=27	=27	=27	=27	=27	=27	=27	=27	=27	=27	=27	=27	=27	=27	=27	=27	=27	=27	=27	=27	=27	=27	=27	=27
!	!LO:DY:b:rj	!	!LO:DY:b:rj	!	!	!	!LO:DY:b:rj	!	!LO:DY:b:rj	!LO:TX:i:a:t=a tempo	!LO:DY:b:rj	!	!LO:DY:b:rj	!	!	!	!LO:DY:b:rj	!LO:TX:i:a:t=due	!	!	!	!	!LO:DY:b:rj
[>2.F\	f	[>2.F\yy	f	2.r	.	[>2.c [<2.F/	f	[>2.f [<2.An/	f	(<[<8f/L	f	8f/L	f	[>2.c [>2.F\	.	[>2.f [<2.AX/	f	(<[<8F/L	.	[<8f/L	.	[<8f/L	f
.	.	.	.	.	.	.	.	.	.	32f/LL]	.	16r	.	.	.	.	.	32F/LL]	.	(<32f/LL]	.	(<32f/LL]	.
.	.	.	.	.	.	.	.	.	.	32en/	.	.	.	.	.	.	.	32EX/	.	32en/	.	32en/	.
.	.	.	.	.	.	.	.	.	.	32f/	.	32f/LL	.	.	.	.	.	32F/	.	32f/	.	32f/	.
.	.	.	.	.	.	.	.	.	.	32an/JJJ)	.	32f/JJJ	.	.	.	.	.	32A/JJJ)	.	32an/JJJ)	.	32an/JJJ)	.
.	.	.	.	.	.	.	.	.	.	(>[>8cc\L	.	8f/L	.	.	.	.	.	(<[<8c/L	.	(>[>8cc\L	.	[>8cc\L	.
.	.	.	.	.	.	.	.	.	.	32cc\LL]	.	16r	.	.	.	.	.	32c/LL]	.	32cc\LL]	.	(>32cc\LL]	.
.	.	.	.	.	.	.	.	.	.	32bn\	.	.	.	.	.	.	.	32BX/	.	32bn\	.	32bn\	.
.	.	.	.	.	.	.	.	.	.	32cc\	.	32an/LL	.	.	.	.	.	32c/	.	32cc\	.	32cc\	.
.	.	.	.	.	.	.	.	.	.	32een\JJJ)	.	32a/JJJ	.	.	.	.	.	32eX/JJJ)	.	32een\JJJ)	.	32een\JJJ)	.
.	.	.	.	.	.	.	.	.	.	(>[>8ff\L	.	8a/L	.	.	.	.	.	(<[<8f/L	.	(>[>8ff\L	.	[>8ff\L	.
.	.	.	.	.	.	.	.	.	.	32ff\LL]	.	16r	.	.	.	.	.	32f/LL]	.	32ff\LL]	.	(>32ff\LL]	.
.	.	.	.	.	.	.	.	.	.	32ee\	.	.	.	.	.	.	.	32e/	.	32ee\	.	32ee\	.
.	.	.	.	.	.	.	.	.	.	32ff\	.	32cc/LL	.	.	.	.	.	32f/	.	32ff\	.	32ff\	.
.	.	.	.	.	.	.	.	.	.	32aan\JJJ)	.	32cc/JJJ	.	.	.	.	.	32a/JJJ)	.	32aan\JJJ)	.	32aan\JJJ	.
=28	=28	=28	=28	=28	=28	=28	=28	=28	=28	=28	=28	=28	=28	=28	=28	=28	=28	=28	=28	=28	=28	=28	=28
!	!	!	!	!	!	!	!	!	!	!	!	!LO:SIC:v:s=8an	!	!	!	!	!	!	!	!	!	!	!
2F\]	.	2F\]yy	.	2.r	.	2c] 2F/]	.	2f] 2AnX/]	.	(>[>8ccc\L	.	8a-\L	.	2c] 2F\]	.	2f] 2A/]	.	(>[>8cc\L	.	(>[>8cc\L	.	[>8ccc\L)	.
.	.	.	.	.	.	.	.	.	.	32ccc\LL]	.	16r	.	.	.	.	.	32cc\LL]	.	32cc\LL]	.	(>32ccc\LL]	.
.	.	.	.	.	.	.	.	.	.	32bbn\	.	.	.	.	.	.	.	32bX\	.	32bn\	.	32bbn\	.
.	.	.	.	.	.	.	.	.	.	32ccc\	.	32cc\LL	.	.	.	.	.	32cc\	.	32cc\	.	32ccc\	.
.	.	.	.	.	.	.	.	.	.	32eeen\JJJ	.	32cc\JJJ	.	.	.	.	.	32eeX\JJJ	.	32een\JJJ	.	32eeen\JJJ	.
!	!	!	!	!	!	!	!	!	!	!LO:SIC:v:n=2:s=4an	!	!	!	!	!	!	!	!	!	!	!	!	!
.	.	.	.	.	.	.	.	.	.	4fff 4a-^<\)	.	4ff\	.	.	.	.	.	4ff\)	.	4ff\)	.	4fff^<\)	.
4r	.	4ryy	.	.	.	4r	.	4r	.	4r	.	4r	.	4r	.	4r	.	4r	.	4r	.	4r	.
!!LO:PB:g=original
=29	=29	=29	=29	=29	=29	=29	=29	=29	=29	=29	=29	=29	=29	=29	=29	=29	=29	=29	=29	=29	=29	=29	=29
*	*	*	*	*	*	*	*	*	*	*	*	*	*	*	*	*	*	*^	*	*	*	*	*
!	!	!	!	!LO:N:vis=1	!	!	!	!	!	!	!	!LO:N:vis=1	!	!	!	!	!	!	!	!	!	!	!	!
4E-\	.	4E-\yy	.	2.r	.	4e- 4B-\	.	4g-X 4B-/	.	4gg-X 4b-\	.	2.r	.	4e- 4E-\	.	4g-X 4B-/	.	4gg- 4b-\	4ryy	.	4gg- 4b-\	.	4ggg-\	.
4r	.	4ryy	.	.	.	4r	.	4r	.	4r	.	.	.	4r	.	4r	.	4r	4ryy	.	4r	.	4r	.
4A-\	.	4A-\yy	.	.	.	4e- 4A-\	.	4a- 4c/	.	4cc 4e-/	.	.	.	4c 4A-\	.	4e- 4E-/	.	4cc/	4a-\	.	4aa- 4cc\	.	4ccc\	.
=30	=30	=30	=30	=30	=30	=30	=30	=30	=30	=30	=30	=30	=30	=30	=30	=30	=30	=30	=30	=30	=30	=30	=30	=30
!	!	!	!	!	!	!	!	!	!	!	!	!	!	!	!	!	!	!	!	!	!	!	!	!LO:DY:b:rj
!	!	!	!	!	!	!	!	!	!	!	!	!	!	!	!	!	!	!	!	!	!	!	!	!LO:HP:b
.	.	.	.	.	.	.	.	.	.	.	.	.	.	.	.	.	.	(<8qg/	.	.	(<8qggn/	.	8qggn/	p <
*	*	*	*	*	*	*	*	*	*	*	*	*	*	*	*	*	*	*	*	*	*^	*	*	*
!LO:N:vis=1	!	!LO:N:vis=1	!	!	!	!LO:N:vis=1	!	!LO:N:vis=1	!	!LO:N:vis=1	!	!LO:N:vis=1	!	!LO:N:vis=1	!	!	!	!	!	!LO:HP:b	!	!	!	!	!
2.r	.	2.r	.	4r	.	2.r	.	2.r	.	2.r	.	2.r	.	2.r	.	2.r	.	2.a-TT/)	2.a-\	<	2.aa-TT</)	2.re	.	2.aa-T>\	.
.	.	.	.	4r	.	.	.	.	.	.	.	.	.	.	.	.	.	.	.	.	.	.	.	.	.
.	.	.	.	4a-/	Tu	.	.	.	.	.	.	.	.	.	.	.	.	.	.	[	.	.	.	.	[
*	*	*	*	*	*	*	*	*	*	*	*	*	*	*	*	*	*	*v	*v	*	*	*	*	*	*
*	*	*	*	*	*	*	*	*	*	*	*	*	*	*	*	*	*	*	*	*v	*v	*	*	*
=31	=31	=31	=31	=31	=31	=31	=31	=31	=31	=31	=31	=31	=31	=31	=31	=31	=31	=31	=31	=31	=31	=31	=31
!	!LO:DY:b:rj	!	!LO:DY:b:rj	!	!	!	!	!	!	!	!	!	!	!LO:N:vis=1	!	!	!	!	!LO:DY:b:rj	!	!LO:DY:b:rj	!	!LO:DY:b:rj
4AA-/	fp	4AA-/yy	fp	8.aa-\	gó-	4A-/	.	8.r	.	8.r	.	2.r	.	2.r	.	2.r	.	8aa- 8a-\	f	8aa-\	f	8aaa-\	f
.	.	.	.	.	.	.	.	.	.	.	.	.	.	.	.	.	.	8r	.	8r	.	8r	.
!	!	!	!	!	!	!	!	!	!	!	!LO:DY:b:rj	!	!	!	!	!	!	!	!	!	!	!	!
.	.	.	.	16gg-\	-ry	.	.	(<16A-|</	.	[<16A-|</	f	.	.	.	.	.	.	.	.	.	.	.	.
!	!	!	!	!	!	!	!	!	!	!	!LO:DY:b	!	!	!	!	!	!	!	!	!	!	!	!
4r	.	4ryy	.	4ff\	ska-	4r	.	4c/)	.	4g- 4A-/]	p	.	.	.	.	.	.	4r	.	4r	.	4r	.
4AA-/	.	4AA-/yy	.	4ee-\	-ły	4A-/	.	4c/	.	4g- 4A-/	.	.	.	.	.	.	.	4r	.	4r	.	4r	.
=32	=32	=32	=32	=32	=32	=32	=32	=32	=32	=32	=32	=32	=32	=32	=32	=32	=32	=32	=32	=32	=32	=32	=32
4D-\	.	4D-\yy	.	(>8.dd-\L	do-	4d-\	.	8.r	.	8.r	.	2.r	.	2.r	.	2.r	.	2.r	.	2.r	.	2.r	.
.	.	.	.	16cc\Jk)	.	.	.	(<16A-|</	.	[<16A-|</	.	.	.	.	.	.	.	.	.	.	.	.	.
4r	.	4ryy	.	4b-\	-li-	4r	.	4d-/)	.	4f 4A-/]	.	.	.	.	.	.	.	.	.	.	.	.	.
4D-\	.	4D-\yy	.	4a-/	-ny,	4d-\	.	4d-/	.	4f 4A-/	.	.	.	.	.	.	.	.	.	.	.	.	.
=33	=33	=33	=33	=33	=33	=33	=33	=33	=33	=33	=33	=33	=33	=33	=33	=33	=33	=33	=33	=33	=33	=33	=33
4D-\	.	4D-\yy	.	8.g-/	Las	4d-\	.	8.r	.	8.r	.	2.r	.	2.r	.	2.r	.	2.r	.	2.r	.	2.r	.
.	.	.	.	16b-/	i	.	.	(<16B-/	.	[<16B-|</	.	.	.	.	.	.	.	.	.	.	.	.	.
4r	.	4ryy	.	4a-/	lu-	4r	.	4d-/)	.	4g- 4B-/]	.	.	.	.	.	.	.	.	.	.	.	.	.
4D-\	.	4D-\yy	.	4g-/	-dek	4d-\	.	4d-/	.	4g- 4B-/	.	.	.	.	.	.	.	.	.	.	.	.	.
!!LO:PB:g=original
=34	=34	=34	=34	=34	=34	=34	=34	=34	=34	=34	=34	=34	=34	=34	=34	=34	=34	=34	=34	=34	=34	=34	=34
4D-\	.	4D-\yy	.	8.f/	dziar-	4d-\	.	8.r	.	8.r	.	2.r	.	2.r	.	2.r	.	2.r	.	2.r	.	2.r	.
.	.	.	.	16dd-\	-skiej	.	.	(<16A-|</	.	[<16A-|</	.	.	.	.	.	.	.	.	.	.	.	.	.
4r	.	4ryy	.	4b-\	mi-	4r	.	4d-/)	.	4f 4A-/]	.	.	.	.	.	.	.	.	.	.	.	.	.
4D-\	.	4D-\yy	.	4a-\	-ny	4d-\	.	4d-/	.	4f 4A-/	.	.	.	.	.	.	.	.	.	.	.	.	.
=35	=35	=35	=35	=35	=35	=35	=35	=35	=35	=35	=35	=35	=35	=35	=35	=35	=35	=35	=35	=35	=35	=35	=35
*	*	*	*	*	*	*	*	*	*	*	*	*	*	*^	*	*	*	*^	*	*	*	*	*
*	*	*	*	*	*	*	*	*	*	*	*	*	*	*clefC4	*clefC4	*	*	*	*	*	*	*	*	*	*
!	!	!	!	!	!	!	!	!	!	!	!	!	!	!	!	!	!	!LO:DY:b:rj	!	!	!LO:DY:b	!	!	!	!LO:DY:b
(<4AA-'</	.	(<4AA-'</yy	.	8a-\	Wszę-	(<4A-'</	.	(>4e- 4c'>/	.	(>4g- 4A-'>/	.	2.r	.	2.e-/	2.c\	.	2.g-X 2.A-/	p	8a-'>/L	2.re	p	2.r	.	8aa-'>\L	p
.	.	.	.	8b-\	-dzie	.	.	.	.	.	.	.	.	.	.	.	.	.	8b-'>/	.	.	.	.	8bb-'>\	.
4AA-'</	.	4AA-'</yy	.	8cc\	ho-	4A-'</	.	4e- 4c'>/	.	4g- 4A-'>/	.	.	.	.	.	.	.	.	8cc'>/	.	.	.	.	8ccc'>\	.
.	.	.	.	8dd-\	-żo	.	.	.	.	.	.	.	.	.	.	.	.	.	8dd-'>/	.	.	.	.	8ddd-'>\	.
4AA-'</)	.	4AA-'</)yy	.	8ee-\	wszę-	4A-'</)	.	4e- 4c'>/)	.	4g- 4A-'>/)	.	.	.	.	.	.	.	.	8ee-'>/	.	.	.	.	8eee-'>\	.
.	.	.	.	8ff\	-dzie	.	.	.	.	.	.	.	.	.	.	.	.	.	8ff'>/J	.	.	.	.	8fff'>\J	.
=36	=36	=36	=36	=36	=36	=36	=36	=36	=36	=36	=36	=36	=36	=36	=36	=36	=36	=36	=36	=36	=36	=36	=36	=36	=36
!	!	!	!	!	!	!	!	!	!	!	!	!	!	!	!	!	!	!	!LO:TX:t=P:problem=poprawiony dźwięk	!	!	!	!	!	!
8D-\	.	8D-\yy	.	8dd-\	żwa-	8d-\	.	8d-/	.	8f 8A-/	.	2.r	.	8d-/	8d-\	.	8f 8A-/	.	8dd-/	2.re	.	2.r	.	8ddd-\	.
8r	.	8ryy	.	8r	.	8r	.	8r	.	8r	.	.	.	8r	8ryy	.	8r	.	8r	.	.	.	.	8r	.
*	*	*	*	*	*	*2\right	*	*	*	*	*	*	*	*	*	*	*	*	*	*	*	*	*	*	*
!	!	!	!	!	!	!	!	!	!	!	!	!	!	!	!	!	!	!	!LO:TX:t=P:problem=poprawiony dźwięk	!	!	!	!	!	!
2D-\	.	2D-\yy	.	2aa-\	-wo	2d-\	.	2d-/	.	2f 2A-^>/	.	.	.	2d-/	2d-^<\	.	2f 2A-^</	.	2aa-^>/	.	.	.	.	2aaa-^<\	.
*	*	*	*	*	*	*	*	*	*	*	*	*	*	*v	*v	*	*	*	*v	*v	*	*	*	*	*
=37	=37	=37	=37	=37	=37	=37	=37	=37	=37	=37	=37	=37	=37	=37	=37	=37	=37	=37	=37	=37	=37	=37	=37
4G-\	.	4G-\yy	.	8.b-\	I	4G-/	.	8.r	.	8.r	.	2.r	.	2.r	.	2.r	.	2.r	.	2.r	.	2.r	.
.	.	.	.	16ddn\	na	.	.	(<16B-|</	.	[<16B-|</	.	.	.	.	.	.	.	.	.	.	.	.	.
4r	.	4ryy	.	4ee-\	le-	4r	.	4e-/)	.	4g- 4B-/]	.	.	.	.	.	.	.	.	.	.	.	.	.
4E-\	.	4E-\yy	.	4gg-\	-wo	4E-/	.	4e-/	.	4g- 4B-/	.	.	.	.	.	.	.	.	.	.	.	.	.
=38	=38	=38	=38	=38	=38	=38	=38	=38	=38	=38	=38	=38	=38	=38	=38	=38	=38	=38	=38	=38	=38	=38	=38
4A-\	.	4A-\yy	.	8.a-/	i	4A-/	.	8.r	.	8.r	.	2.r	.	2.r	.	2.r	.	2.r	.	2.r	.	2.r	.
.	.	.	.	16cc\	na	.	.	(<16A-|</	.	[<16A-|</	.	.	.	.	.	.	.	.	.	.	.	.	.
4r	.	4ryy	.	4ee-\	pra-	4r	.	4c/)	.	4g- 4A-/]	.	.	.	.	.	.	.	.	.	.	.	.	.
4D-\	.	4D-\yy	.	4dd-\	-wo	4d-\	.	4d-/	.	4f 4A-/	.	.	.	.	.	.	.	.	.	.	.	.	.
!!LO:PB:g=original
=39	=39	=39	=39	=39	=39	=39	=39	=39	=39	=39	=39	=39	=39	=39	=39	=39	=39	=39	=39	=39	=39	=39	=39
*	*	*	*	*	*	*	*	*	*	*	*	*	*	*^	*	*	*	*^	*	*^	*	*	*
*	*	*	*	*	*	*	*	*	*	*	*	*	*	*clefC4	*clefC4	*	*	*	*	*	*	*	*	*	*	*
!	!LO:DY:b:rj	!	!LO:DY:b:rj	!	!	!	!	!	!	!	!LO:DY:b:rj	!	!LO:DY:b:rj	!	!	!LO:DY:b:rj	!LO:TX:t=P:problem=poprawione dźwięki	!LO:DY:b:rj	!	!	!LO:DY:b:rj	!	!	!	!	!LO:DY:b:rj
4AA-/	f	4AA-/yy	f	2.r	.	4r	.	4r	.	8a-'</L	f	8A-'</L	f	2.e-/	2.c\	f	2.g-X 2.A-\	f	8a-/L	4e-\	f	8a-/L	4g-\	.	8aa-'>\L	f
.	.	.	.	.	.	.	.	.	.	8b-'</	.	8B-'</	.	.	.	.	.	.	8b-/	.	.	8b-/	.	.	8bb-'>\	.
!	!	!	!	!	!	!	!LO:DY:b:rj	!	!	!	!	!	!	!	!	!	!	!	!	!	!	!	!	!	!	!
4r	.	4ryy	.	.	.	4e- 4c\	f	4g- 4A-/	.	8cc'</	.	8c'</	.	.	.	.	.	.	8cc/	4e-\	.	8cc/	4g-\	.	8ccc'>\	.
.	.	.	.	.	.	.	.	.	.	8dd-'</	.	8d-'</	.	.	.	.	.	.	8dd-/	.	.	8dd-/	.	.	8ddd-'>\	.
4r	.	4ryy	.	.	.	4e- 4c\	.	4g- 4A-/	.	8ee-'</	.	8e-'</	.	.	.	.	.	.	8ee-/	4e-\	.	8ee-/	4g-\	.	8eee-'>\	.
.	.	.	.	.	.	.	.	.	.	8ff'</J	.	8f'</J	.	.	.	.	.	.	8ff/J	.	.	8ff/J	.	.	8fff'>\J	.
=40	=40	=40	=40	=40	=40	=40	=40	=40	=40	=40	=40	=40	=40	=40	=40	=40	=40	=40	=40	=40	=40	=40	=40	=40	=40	=40
8D-\	.	8D-\yy	.	2.r	.	8d-\	.	8f 8A-/	.	8dd-\	.	8d-/	.	8d-/	8d-\	.	8f 8A-\	.	8dd-/	8f\	.	8dd-/	8f\	.	8ddd-\	.
8r	.	8ryy	.	.	.	8r	.	8r	.	8r	.	8r	.	8r	8ryy	.	8r	.	8r	8r	.	8r	8ryy	.	8r	.
*	*	*	*	*	*	*	*	*	*	*	*	*	*	*	*	*	*	*	*	*	*	*2\right	*	*	*	*
2D-\	.	2D-\yy	.	.	.	2d-\	.	2f 2A-^</	.	2aa-^<\	.	2a-^</	.	2d-/	2d-^<\	.	2f 2A-^<\	.	2dd- 2f^<\	2ryy	.	2aa-/	2ff\	.	2aaa-^<\	.
=41	=41	=41	=41	=41	=41	=41	=41	=41	=41	=41	=41	=41	=41	=41	=41	=41	=41	=41	=41	=41	=41	=41	=41	=41	=41	=41
4AA-/	.	4AA-/yy	.	2.r	.	4r	.	4r	.	(>8.bb-\L	.	(<8.b-/L	.	4r	4ryy	.	4r	.	(>8.b-/L	4r	.	(>8.bb-/L	4r	.	(>8.bbb-\L	.
.	.	.	.	.	.	.	.	.	.	16aa-\Jk)	.	16a-/Jk)	.	.	.	.	.	.	16a-/Jk)	.	.	16aa-/Jk)	.	.	16aaa-\Jk)	.
4A-\	.	4A-\yy	.	.	.	4e- 4c\	.	4g- 4A-/	.	4gg-\	.	4g-/	.	4e-/	4c\	.	4g-X 4A-\	.	4g-/	4e-\	.	4gg-/	4cc\	.	4ggg-\	.
4AA-/	.	4AA-/yy	.	.	.	4e- 4c\	.	4g- 4A-/	.	4cc\	.	4c/	.	4e-/	4c\	.	4g- 4A-\	.	4cc/	4e-\	.	4gg- 4ee-\	4ryy	.	4ccc\	.
*	*	*	*	*	*	*	*	*	*	*	*	*	*	*	*	*	*	*	*v	*v	*	*	*	*	*	*
*	*	*	*	*	*	*	*	*	*	*	*	*	*	*	*	*	*	*	*	*	*v	*v	*	*	*
=42	=42	=42	=42	=42	=42	=42	=42	=42	=42	=42	=42	=42	=42	=42	=42	=42	=42	=42	=42	=42	=42	=42	=42	=42
8D-\	.	8D-\yy	.	2.r	.	8d-\	.	8f 8A-/	.	8dd-\	.	8d-/	.	8d-/	8d-\	.	8f 8A-\	.	8dd- 8f\	.	8ff 8dd-\	.	8ddd-\	.
8r	.	8ryy	.	.	.	8r	.	8r	.	8r	.	8r	.	8r	8ryy	.	8r	.	8r	.	8r	.	8r	.
2D-^<\	.	2D-^<\yy	.	.	.	2d-\	.	2f 2A-^</	.	2ddd- 2dd-^<\	.	2dd-\	.	2d-/	2d-^<\	.	2f 2A-\	.	2dd- 2f\	.	2ff 2dd-\	.	2ddd-\	.
*	*	*	*	*	*	*	*	*	*	*	*	*	*	*clefF4	*clefF4	*	*	*	*	*	*	*	*	*
=43	=43	=43	=43	=43	=43	=43	=43	=43	=43	=43	=43	=43	=43	=43	=43	=43	=43	=43	=43	=43	=43	=43	=43	=43
*	*	*	*	*	*	*	*	*	*	*	*	*	*	*	*	*	*	*	*^	*	*	*	*	*
!	!LO:DY:b:rj	!	!LO:DY:b:rj	!	!	!	!LO:DY:b	!	!LO:DY:b	!	!LO:DY:b:rj	!	!	!LO:TX:i:a:t=Io.	!	!LO:DY:a:rj	!	!	!	!	!	!	!	!	!
!	!	!	!	!	!	!	!	!	!	!	!	!	!	!LO:TX:t=P:problem=brak zakończenia ligatury	!	!	!	!	!	!	!LO:DY:a	!	!	!	!LO:DY:b
4G-\	p	4G-\yy	p	8.b-\	Tu	4r	p	4r	p	(>16b-/LL	p	2.r	.	[>2.d-/	2.r	p	2.r	.	8.r	2.re	p	2.r	.	8.r	p
.	.	.	.	.	.	.	.	.	.	16an/	.	.	.	.	.	.	.	.	.	.	.	.	.	.	.
.	.	.	.	.	.	.	.	.	.	16b-/	.	.	.	.	.	.	.	.	.	.	.	.	.	.	.
!	!	!	!	!	!	!	!	!	!	!	!LO:HP:b	!	!	!	!	!	!	!	!	!	!	!	!	!	!
.	.	.	.	16an\	w oj-	.	.	.	.	16a/JJ	<	.	.	.	.	.	.	.	16a/	.	.	.	.	16aan\	.
4r	.	4ryy	.	4b-\	-co-	4d-\	.	4g- 4B-/	.	16b-/LL	.	.	.	.	.	.	.	.	4b-/	.	.	.	.	4bb-\	.
.	.	.	.	.	.	.	.	.	.	16a-X/	.	.	.	.	.	.	.	.	.	.	.	.	.	.	.
.	.	.	.	.	.	.	.	.	.	16g-/	.	.	.	.	.	.	.	.	.	.	.	.	.	.	.
.	.	.	.	.	.	.	.	.	.	16b-/JJ	.	.	.	.	.	.	.	.	.	.	.	.	.	.	.
4r	.	4ryy	.	4dd-\	-wie	4d-\	.	4g- 4B-/	.	16dd-\LL	.	.	.	.	.	.	.	.	4dd-/	.	.	.	.	4ddd-\	.
.	.	.	.	.	.	.	.	.	.	16cc\	.	.	.	.	.	.	.	.	.	.	.	.	.	.	.
.	.	.	.	.	.	.	.	.	.	16dd-\	.	.	.	.	.	.	.	.	.	.	.	.	.	.	.
.	.	.	.	.	.	.	.	.	.	16b-\JJ)	[	.	.	.	.	.	.	.	.	.	.	.	.	.	.
!!LO:PB:g=original
=44	=44	=44	=44	=44	=44	=44	=44	=44	=44	=44	=44	=44	=44	=44	=44	=44	=44	=44	=44	=44	=44	=44	=44	=44	=44
!	!	!	!	!	!	!	!	!	!	!	!LO:HP:b	!LO:N:vis=1	!	!	!LO:N:vis=1	!LO:DY:a:rj	!LO:N:vis=1	!	!	!LO:N:vis=1	!	!	!	!	!
4D-\	.	4D-\yy	.	8.a-/	do-	4r	.	4r	.	(>16a-/LL	>	2.r	.	2.d-/_>	2.r	p	2.r	.	8.r	2.re	.	2.r	.	8.r	.
.	.	.	.	.	.	.	.	.	.	16gn/	.	.	.	.	.	.	.	.	.	.	.	.	.	.	.
.	.	.	.	.	.	.	.	.	.	16a-/	.	.	.	.	.	.	.	.	.	.	.	.	.	.	.
!	!	!	!	!	!	!	!	!	!	!	!	!	!	!	!	!	!	!	!	!	!	!	!	!	!LO:DY:b:rj
.	.	.	.	16cc\	-bre	.	.	.	.	16cc/JJ	.	.	.	.	.	.	.	.	16cc/	.	.	.	.	16ccc|>\	p
4r	.	4ryy	.	4dd-\	le-	(>4d-'>\	.	(<4f 4A-'</	.	16dd-\LL	.	.	.	.	.	.	.	.	4dd-/	.	.	.	.	4ddd-\	.
.	.	.	.	.	.	.	.	.	.	16cc\	.	.	.	.	.	.	.	.	.	.	.	.	.	.	.
.	.	.	.	.	.	.	.	.	.	16dd-\	.	.	.	.	.	.	.	.	.	.	.	.	.	.	.
.	.	.	.	.	.	.	.	.	.	16a-\JJ	]]	.	.	.	.	.	.	.	.	.	.	.	.	.	.
4r	.	4ryy	.	4a-/	-ki,	4d-'>\)	.	4f 4A-'</)	.	16dd-\LL	.	.	.	.	.	.	.	.	4a-/	.	.	.	.	4aa-\	.
.	.	.	.	.	.	.	.	.	.	16cc\	.	.	.	.	.	.	.	.	.	.	.	.	.	.	.
.	.	.	.	.	.	.	.	.	.	16dd-\	.	.	.	.	.	.	.	.	.	.	.	.	.	.	.
.	.	.	.	.	.	.	.	.	.	16a-\JJ)	.	.	.	.	.	.	.	.	.	.	.	.	.	.	.
=45	=45	=45	=45	=45	=45	=45	=45	=45	=45	=45	=45	=45	=45	=45	=45	=45	=45	=45	=45	=45	=45	=45	=45	=45	=45
.	.	.	.	(<8qcc/	.	.	.	.	.	(<8qcc/	.	.	.	.	.	.	.	.	.	.	.	.	.	.	.
!	!	!	!	!	!	!	!	!	!	!	!LO:HP:b	!LO:N:vis=1	!	!	!LO:N:vis=1	!	!LO:N:vis=1	!	!	!LO:N:vis=1	!	!	!	!	!
4G-\	.	4G-\yy	.	8.b-\)	Tu	4r	.	4r	.	(>16b-/LL)	<	2.r	.	2.d-/_>	2.r	.	2.r	.	8.r	2.re	.	2.r	.	8.r	.
.	.	.	.	.	.	.	.	.	.	16an/	.	.	.	.	.	.	.	.	.	.	.	.	.	.	.
.	.	.	.	.	.	.	.	.	.	16b-/	.	.	.	.	.	.	.	.	.	.	.	.	.	.	.
.	.	.	.	16an\	z gór	.	.	.	.	16a/JJ	.	.	.	.	.	.	.	.	16a/	.	.	.	.	16aan|>\	.
4r	.	4ryy	.	4b-\	czy-	(>4d-'>\	.	(<4g- 4B-'</	.	16b-/LL	.	.	.	.	.	.	.	.	4b-/	.	.	.	.	4bb-|>\	.
.	.	.	.	.	.	.	.	.	.	16a-X/	.	.	.	.	.	.	.	.	.	.	.	.	.	.	.
.	.	.	.	.	.	.	.	.	.	16g-/	.	.	.	.	.	.	.	.	.	.	.	.	.	.	.
.	.	.	.	.	.	.	.	.	.	16b-/JJ	.	.	.	.	.	.	.	.	.	.	.	.	.	.	.
.	.	.	.	(<8qdd-/	.	.	.	.	.	(<8qee-/	.	.	.	.	.	.	.	.	(<8qdd-/	.	.	.	.	(<8qddd-/	.
4r	.	4ryy	.	4cc\)	-stej	4d-'>\)	.	4g- 4B-'</)	.	16dd-/LL)	.	.	.	.	.	.	.	.	4cc/)	.	.	.	.	4ccc\)	.
.	.	.	.	.	.	.	.	.	.	16cc/	.	.	.	.	.	.	.	.	.	.	.	.	.	.	.
.	.	.	.	.	.	.	.	.	.	16dd-/	.	.	.	.	.	.	.	.	.	.	.	.	.	.	.
.	.	.	.	.	.	.	.	.	.	16b-/JJ)	[	.	.	.	.	.	.	.	.	.	.	.	.	.	.
=46	=46	=46	=46	=46	=46	=46	=46	=46	=46	=46	=46	=46	=46	=46	=46	=46	=46	=46	=46	=46	=46	=46	=46	=46	=46
!	!	!	!	!	!	!	!	!	!	!	!LO:HP:b	!	!	!	!	!	!	!	!	!	!	!	!	!	!
4D-\	.	4D-\yy	.	8.a-/	wo-	4r	.	4r	.	(>16a-/LL	>	2.r	.	2.d-/]	2.r	.	2.r	.	8.r	2.re	.	2.r	.	8.r	.
.	.	.	.	.	.	.	.	.	.	16g-/	.	.	.	.	.	.	.	.	.	.	.	.	.	.	.
.	.	.	.	.	.	.	.	.	.	16a-/	.	.	.	.	.	.	.	.	.	.	.	.	.	.	.
.	.	.	.	16cc\	-dy	.	.	.	.	16cc/JJ	.	.	.	.	.	.	.	.	16cc/	.	.	.	.	16ccc|>\	.
.	.	.	.	(<8qee-/	.	.	.	.	.	(<8qee-/	.	.	.	.	.	.	.	.	(<8qee-/	.	.	.	.	(<8qeee-/	.
4r	.	4ryy	.	4dd-\)	ście-	(>4d-'>\	.	(<4f 4A-'</	.	16dd-\LL)	.	.	.	.	.	.	.	.	4dd-/)	.	.	.	.	4ddd-\)	.
.	.	.	.	.	.	.	.	.	.	16cc\	.	.	.	.	.	.	.	.	.	.	.	.	.	.	.
.	.	.	.	.	.	.	.	.	.	16dd-\	.	.	.	.	.	.	.	.	.	.	.	.	.	.	.
.	.	.	.	.	.	.	.	.	.	16a-\JJ	]	.	.	.	.	.	.	.	.	.	.	.	.	.	.
4r	.	4ryy	.	4a-/	-ki,	4d-'>\)	.	4f 4A-'</)	.	16dd-\LL	.	.	.	.	.	.	.	.	4a-/	.	.	.	.	4aa-\	.
.	.	.	.	.	.	.	.	.	.	16cc\	.	.	.	.	.	.	.	.	.	.	.	.	.	.	.
.	.	.	.	.	.	.	.	.	.	16dd-\	.	.	.	.	.	.	.	.	.	.	.	.	.	.	.
.	.	.	.	.	.	.	.	.	.	16a-\JJ)	.	.	.	.	.	.	.	.	.	.	.	.	.	.	.
*	*	*	*	*	*	*	*	*	*	*	*	*	*	*v	*v	*	*	*	*v	*v	*	*	*	*	*
=47	=47	=47	=47	=47	=47	=47	=47	=47	=47	=47	=47	=47	=47	=47	=47	=47	=47	=47	=47	=47	=47	=47	=47
*	*	*	*	*	*	*	*	*	*	*	*	*	*	*	*	*^	*	*	*	*^	*	*	*
!	!LO:DY:b:rj	!	!LO:DY:b:rj	!	!	!	!LO:DY:b:rj	!	!LO:DY:b:rj	!	!LO:DY:b:rj	!	!	!LO:TX:i:a:t=due	!	!	!	!	!	!LO:DY:b:rj	!	!	!	!	!LO:DY:b:rj
8.D-\L	f	8.D-\Lyy	f	8.ff\	Tu	8.f\L	f	8.a-/L	f	8.ff\L	f	8.f/L	.	8.D-\L	.	8.f/L	8.f\L	.	8.ffL 8.a-\	f	8.ffL 8.a-\	4ryy	.	8.fff\L	f
16F\Jk	.	16F\Jkyy	.	16ee-\	po-	16f\Jk	.	16an/Jk	.	16ee-\Jk	.	16e-/Jk	.	16F\Jk	.	16f/Jk	16f\Jk	.	16ee-Jk 16a\	.	16ee-Jk 16an\	.	.	16eee-\Jk	.
4B-\	.	4B-\yy	.	4dd-\	-wie-	4f\	.	4b-/	.	4dd-\	.	4d-/	.	4B-\	.	4f/	4f\	.	4dd- 4b-\	.	4dd- 4b-\	4ryy	.	4ddd-\	.
4F\	.	4F\yy	.	4cc\	-trze	4f\	.	4a/	.	4cc\	.	4c/	.	4F\	.	4f/	4f\	.	4cc 4a\	.	4cc/	4a\	.	4ccc\	.
*	*	*	*	*	*	*	*	*	*	*	*	*	*	*	*	*v	*v	*	*	*	*v	*v	*	*	*
!!LO:PB:g=original
=48	=48	=48	=48	=48	=48	=48	=48	=48	=48	=48	=48	=48	=48	=48	=48	=48	=48	=48	=48	=48	=48	=48	=48
8.G-\L	.	8.G-\Lyy	.	8.b-\	jak-	8.g-\L	.	8.g-/L	.	8.b-\L	.	8.B-/L	.	8.G-\L	.	8.g-X\L	.	8.b-L 8.g-/	.	8.b-L 8.g-/	.	8.bb-\L	.
16F\Jk	.	16F\Jkyy	.	16ddn\	-by	16f\Jk	.	16a-Jk 16B-/	.	16ddn\Jk	.	16dn/Jk	.	16F\Jk	.	16f\Jk	.	16b-Jk 16a-/	.	16ddnJk 16a-/	.	16dddn\Jk	.
4E-\	.	4E-\yy	.	4ee-\	w ra-	4e-\	.	4g- 4B-/	.	4ee-\	.	4e-/	.	4E-\	.	4e-\	.	4b- 4g-/	.	4ee- 4g-/	.	4eee-\	.
4G-\	.	4G-\yy	.	4b--\	-ju,	4G-/	.	4g-/	.	4b--\	.	4r	.	4r	.	4r	.	4r	.	4r	.	4r	.
=49	=49	=49	=49	=49	=49	=49	=49	=49	=49	=49	=49	=49	=49	=49	=49	=49	=49	=49	=49	=49	=49	=49	=49
!	!	!	!	!	!	!	!	!	!LO:DY:b	!	!LO:DY:b	!	!	!	!	!	!	!	!	!	!	!	!
4A-\	.	4A-\yy	.	8.a-\	Wo-	4A-/	.	8.r	p	8.r	p	2.r	.	2.r	.	2.r	.	2.r	.	2.r	.	2.r	.
.	.	.	.	16dd-X\	-nie	.	.	(<16A-|</	.	[<16A-|</	.	.	.	.	.	.	.	.	.	.	.	.	.
.	.	.	.	(<8qdd-/	.	.	.	.	.	.	.	.	.	.	.	.	.	.	.	.	.	.	.
4r	.	4ryy	.	4cc\)	z ros-	4r	.	4d-/)	.	4f 4A-/]	.	.	.	.	.	.	.	.	.	.	.	.	.
4AA-/	.	4AA-/yy	.	4dd-\	-lin	4A-/	.	4d-/	.	4f 4A-/	.	.	.	.	.	.	.	.	.	.	.	.	.
=50	=50	=50	=50	=50	=50	=50	=50	=50	=50	=50	=50	=50	=50	=50	=50	=50	=50	=50	=50	=50	=50	=50	=50
4AA-/	.	4AA-/yy	.	8.ff\	wo-	4A-/	.	8.r	.	8.r	.	2.r	.	2.r	.	2.r	.	2.r	.	2.r	.	2.r	.
.	.	.	.	16ee-\	-nie	.	.	(<16A-|</	.	[<16A-|</	.	.	.	.	.	.	.	.	.	.	.	.	.
4r	.	4ryy	.	4ee-\	z ga-	4r	.	4c/)	.	4g- 4A-/]	.	.	.	.	.	.	.	.	.	.	.	.	.
4D-\	.	4D-\yy	.	4dd-\	-ju.	4d-\	.	4d-/	.	4f 4A-/	.	.	.	.	.	.	.	.	.	.	.	.	.
*	*	*	*	*	*	*	*	*	*	*	*	*	*	*clefC4	*	*	*	*	*	*	*	*	*
=51	=51	=51	=51	=51	=51	=51	=51	=51	=51	=51	=51	=51	=51	=51	=51	=51	=51	=51	=51	=51	=51	=51	=51
*	*	*	*	*	*	*	*	*	*	*	*	*	*	*^	*	*	*	*^	*	*	*	*	*
!	!	!	!	!	!	!	!	!	!	!	!	!	!	!	!	!	!	!LO:DY:b:rj	!	!	!	!	!	!	!
(<4AA-'</	.	(<4AA-'</yy	.	8a-\	la	(<4A-'</	.	(>4e- 4c'>/	.	(>4g- 4A-'>/	.	2.r	.	2.e-/	2.c\	.	(>2.g-X [>2.A-\	p	8a-/L	2.re	.	2.r	.	8aa-'>\L	.
*	*	*	*	*	*ij	*	*	*	*	*	*	*	*	*	*	*	*	*	*	*	*	*	*	*	*
.	.	.	.	8b-\	la	.	.	.	.	.	.	.	.	.	.	.	.	.	8b-/	.	.	.	.	8bb-'>\	.
4AA-'</	.	4AA-'</yy	.	8cc\	la	4A-'</	.	4e- 4c'>/	.	4g- 4A-'>/	.	.	.	.	.	.	.	.	8cc/	.	.	.	.	8ccc'>>\	.
.	.	.	.	8dd-\	la	.	.	.	.	.	.	.	.	.	.	.	.	.	8dd-/	.	.	.	.	8ddd-'\	.
4AA-'</)	.	4AA-'</)yy	.	8ee-\	la	4A-'</)	.	4e- 4c'>/)	.	4g- 4A-'>/)	.	.	.	.	.	.	.	.	8ee-/	.	.	.	.	8eee-'>\	.
.	.	.	.	8ff\	la	.	.	.	.	.	.	.	.	.	.	.	.	.	8ff/J	.	.	.	.	8fff'>\J	.
*	*	*	*	*	*Xij	*	*	*	*	*	*	*	*	*	*	*	*	*	*	*	*	*	*	*	*
=52	=52	=52	=52	=52	=52	=52	=52	=52	=52	=52	=52	=52	=52	=52	=52	=52	=52	=52	=52	=52	=52	=52	=52	=52	=52
8D-\	.	8D-\yy	.	8dd-\	la	8d-\	.	8d-/	.	8f 8A-/	.	2.r	.	8d-/	8d-\	.	8f 8A-\])	.	8dd-/	2.re	.	2.r	.	8ddd-\	.
8r	.	8ryy	.	8r	.	8r	.	8r	.	8r	.	.	.	8r	8ryy	.	8r	.	8r	.	.	.	.	8r	.
!LO:TX:t=P:problem=niekompletny takt	!	!LO:TX:t=P:problem=niekompletny takt	!	!	!	!LO:TX:t=P:problem=niekompletny takt	!	!	!	!	!	!	!	!	!	!	!	!	!LO:SIC:v:s=2gg-	!	!	!	!	!	!
2D-\yy	.	2D-\yy	.	2aa-^>\	la	2d-\yy	.	2d-/	.	2f 2A-^</	.	.	.	2d-^>/	2d-\	.	2f 2A-^>\	.	2gg-^>/	.	.	.	.	2aaa-^<\	.
*	*	*	*	*	*	*	*	*	*	*	*	*	*	*v	*v	*	*	*	*v	*v	*	*	*	*	*
!!LO:PB:g=original
=53	=53	=53	=53	=53	=53	=53	=53	=53	=53	=53	=53	=53	=53	=53	=53	=53	=53	=53	=53	=53	=53	=53	=53
!	!LO:DY:b:rj	!	!LO:DY:b:rj	!	!	!	!LO:DY:b	!	!LO:DY:b	!	!LO:DY:a	!	!	!	!	!	!	!	!	!	!	!	!
8A-\	p	8A-\yy	p	(>8.a-\L	la	8.A-/L	p	8.r	p	8.r	p	2.r	.	2.r	.	2.r	.	2.r	.	2.r	.	2.r	.
8r	.	8ryy	.	.	.	.	.	.	.	.	.	.	.	.	.	.	.	.	.	.	.	.	.
.	.	.	.	16gg-\Jk)	.	16A-/Jk	.	16A-|</	.	[<16A-|</	.	.	.	.	.	.	.	.	.	.	.	.	.
4r	.	4ryy	.	4ff\	la	(<4Bn/	.	(<4dn/	.	4f 4A-/]	.	.	.	.	.	.	.	.	.	.	.	.	.
4AA-/	.	4AA-/yy	.	4ee-\	la	4c/)	.	4c/)	.	4e- 4A-/	.	.	.	.	.	.	.	.	.	.	.	.	.
=54	=54	=54	=54	=54	=54	=54	=54	=54	=54	=54	=54	=54	=54	=54	=54	=54	=54	=54	=54	=54	=54	=54	=54
4D-\	.	4D-\yy	.	(>8.een\L	la	4d-\	.	8.r	.	8.r	.	2.r	.	2.r	.	2.r	.	2.r	.	2.r	.	2.r	.
.	.	.	.	16ff\Jk)	.	.	.	(<16A-|</	.	[<16A-|</	.	.	.	.	.	.	.	.	.	.	.	.	.
4r	.	4ryy	.	4dd-\	la	4r	.	4d-/)	.	4f 4A-/]	.	.	.	.	.	.	.	.	.	.	.	.	.
4r	.	4ryy	.	4a-/	la.	4r	.	4d-/	.	4f 4A-/	.	.	.	.	.	.	.	.	.	.	.	.	.
*	*	*	*	*	*	*	*	*	*	*	*	*	*	*clefF4	*	*	*	*	*	*	*	*	*
=55	=55	=55	=55	=55	=55	=55	=55	=55	=55	=55	=55	=55	=55	=55	=55	=55	=55	=55	=55	=55	=55	=55	=55
*	*	*	*	*	*	*	*	*	*	*	*	*	*	*	*	*	*	*	*	*^	*	*	*
!	!LO:DY:b:t=for.:rj	!	!LO:DY:b:t=for.:rj	!	!	!	!LO:DY:b:rj	!	!LO:DY:b:rj	!	!LO:DY:b:rj	!	!	!	!LO:DY:b:rj	!	!	!	!LO:DY:b:rj	!	!	!LO:DY:b:rj	!	!LO:DY:b:rj
4BB-/	f	4BB-/yy	f	2.r	.	4d-\	f	4f 4B-/	f	8b-'>\L	f	8B-/L	.	4d- 4B-\	f	4f 4B-/	.	4dd- 4b-\	f	8b-/L	4b-\	f	8bb-'>\L	f
.	.	.	.	.	.	.	.	.	.	8cc'>\	.	8c/	.	.	.	.	.	.	.	8cc/	.	.	8ccc'>\	.
4B-\	.	4B-\yy	.	.	.	4d-\	.	4f 4B-/	.	8dd-'>\	.	8d-/	.	4d- 4B-\	.	4f 4B-/	.	4dd- 4b-\	.	8dd-/	4b-\	.	8ddd-'>\	.
.	.	.	.	.	.	.	.	.	.	8ee-'>\	.	8e-/	.	.	.	.	.	.	.	8ee-/	.	.	8eee-'>\	.
4B-\	.	4B-\yy	.	.	.	4d-\	.	4f 4B-/	.	8ff'>\	.	8f/	.	4d- 4B-\	.	4f 4B-/	.	4dd- 4b-\	.	8ff/	4b-\	.	8fff'>\	.
.	.	.	.	.	.	.	.	.	.	8gg-'>\J	.	8g-/J	.	.	.	.	.	.	.	8gg-/J	.	.	8ggg-'>\J	.
=56	=56	=56	=56	=56	=56	=56	=56	=56	=56	=56	=56	=56	=56	=56	=56	=56	=56	=56	=56	=56	=56	=56	=56	=56
8G-\	.	8G-\yy	.	2.r	.	8e-\	.	8g- 8B-/	.	8ee-\	.	8e-/	.	8e- 8G-\	.	8g-X 8B-/	.	8ee- 8b-\	.	8ee-/	8b-\	.	8eee-\	.
8r	.	8ryy	.	.	.	8r	.	8r	.	8r	.	8r	.	8r	.	8r	.	8r	.	8r	8r	.	8r	.
2G-^>\	.	2G-^>\yy	.	.	.	2e-^>\	.	2g- 2B-/	.	2bb-^<\	.	2b-^</	.	2e- 2G-\	.	2g- 2B-/	.	2ee- 2b-\	.	2bb-/	2b-\	.	2bb-\	.
=57	=57	=57	=57	=57	=57	=57	=57	=57	=57	=57	=57	=57	=57	=57	=57	=57	=57	=57	=57	=57	=57	=57	=57	=57
*	*	*	*	*	*	*	*	*	*	*	*	*	*	*^	*	*	*	*	*	*	*	*	*	*
4A-\	.	4A-\yy	.	2.r	.	4r	.	4r	.	(>8.ccc\L	.	(<8.cc/L	.	4r	4ryy	.	4r	.	4r	.	(<8.ccc/L	4r	.	(>8.ccc\L	.
.	.	.	.	.	.	.	.	.	.	16bb-\Jk)	.	16b-/Jk)	.	.	.	.	.	.	.	.	16bb-/Jk)	.	.	16bb-\Jk)	.
4AA-/	.	4AA-/yy	.	.	.	4e-\	.	4g- 4A-/	.	4gg-\	.	4g-/	.	4c/	4A-\	.	4g-X 4A-\	.	4cc 4a-\	.	4gg-/	4ee-\	.	4ggg-\	.
4AA-/	.	4AA-/yy	.	.	.	4e-\	.	4g- 4A-/	.	4cc\	.	4c/	.	4e-/	4AA-/	.	4g- 4A-\	.	4ee- 4a-\	.	4gg-/	4cc\	.	4ccc\	.
*	*	*	*	*	*	*	*	*	*	*	*	*	*	*v	*v	*	*	*	*	*	*	*	*	*	*
=58	=58	=58	=58	=58	=58	=58	=58	=58	=58	=58	=58	=58	=58	=58	=58	=58	=58	=58	=58	=58	=58	=58	=58	=58
8D-\	.	8D-\yy	.	2.r	.	8d-\	.	8f 8A-/	.	8dd-\	.	8d-/	.	8d- 8D-\	.	8f 8A-\	.	8dd- 8a-\	.	8ff/	8dd-\	.	8ddd-\	.
8r	.	8ryy	.	.	.	8r	.	8r	.	8r	.	8r	.	8r	.	8r	.	8r	.	8r	8ryy	.	8r	.
2D-^>\	.	2D-^>\yy	.	.	.	2d-^<\	.	2f 2A-^</	.	2ddd- 2dd-^<\	.	2d-/	.	2d- 2D-\	.	2f 2A-^<\	.	2dd- 2a-^<\	.	2ff/	2dd-\	.	2ddd-^<\	.
*	*	*	*	*	*	*	*	*	*	*	*	*	*	*	*	*	*	*	*	*v	*v	*	*	*
=||	=||	=||	=||	=||	=||	=||	=||	=||	=||	=||	=||	=||	=||	=||	=||	=||	=||	=||	=||	=||	=||	=||	=||
*-	*-	*-	*-	*-	*-	*-	*-	*-	*-	*-	*-	*-	*-	*-	*-	*-	*-	*-	*-	*-	*-	*-	*-
!!!system-decoration: [{(s1,s2)}(s3,s4,s5,s6)({(s7,s8)}s9)(s10){(s11,s12)}]
!!!RDF**kern: | = vertical stroke
!!!RDF**kern: > = above
!!!RDF**kern: < = below
!!!EED: Antoni Szymański
!!!EST: 2021-06-12
!!!AIN: 1 cbass 1 cello 1 clars 1 cor 1 empty 1 fagot 1 flt 1 oboe 1 tromp 1 viola 1 violn 1 vox
!!!ENC: Katarzyna Serwa
!!!END: 2021-05-22
